; generated by PrusaSlicer 2.1.0+linux64 on 2019-10-05 at 13:20:31 UTC

; 

; external perimeters extrusion width = 0.45mm
; perimeters extrusion width = 0.45mm
; infill extrusion width = 0.45mm
; solid infill extrusion width = 0.45mm
; top infill extrusion width = 0.40mm
; first layer extrusion width = 0.42mm

M73 P0 R61
M73 Q0 S62
M201 X1000 Y1000 Z1000 E5000 ; sets maximum accelerations, mm/sec^2
M203 X200 Y200 Z12 E120 ; sets maximum feedrates, mm/sec
M204 P1250 R1250 T1250 ; sets acceleration (P, T) and retract acceleration (R), mm/sec^2
M205 X8.00 Y8.00 Z0.40 E1.50 ; sets the jerk limits, mm/sec
M205 S0 T0 ; sets the minimum extruding and travel feed rate, mm/sec
M107
M862.3 P "MK3S" ; printer model check
M862.1 P0.4 ; nozzle diameter check
M115 U3.8.0 ; tell printer latest fw version
G90 ; use absolute coordinates
M83 ; extruder relative mode
M104 S215 ; set extruder temp
M140 S60 ; set bed temp
M190 S60 ; wait for bed temp
M109 S215 ; wait for extruder temp
G28 W ; home all without mesh bed level
G80 ; mesh bed leveling
G1 Y-3.0 F1000.0 ; go outside print area
G92 E0.0
G1 X60.0 E9.0 F1000.0 ; intro line
M73 Q0 S62
M73 P0 R61
G1 X100.0 E12.5 F1000.0 ; intro line
G92 E0.0
M221 S95
G21 ; set units to millimeters
G90 ; use absolute coordinates
M83 ; use relative distances for extrusion
M900 K30 ; Filament gcode
;BEFORE_LAYER_CHANGE
G92 E0.0
;0.2


G1 E-0.80000 F2100.00000
G1 Z0.600 F10800.000
;AFTER_LAYER_CHANGE
;0.2
G1 X103.128 Y71.106
G1 Z0.200
G1 E0.80000 F2100.00000
M204 S1000
G1 F1200
G1 X103.679 Y70.377 E0.02865
G1 X104.373 Y69.834 E0.02764
G1 X105.202 Y69.477 E0.02828
G1 X106.048 Y69.349 E0.02683
G1 X143.863 Y69.347 E1.18567
G1 X145.020 Y69.554 E0.03684
G1 X145.650 Y69.847 E0.02180
G1 X146.286 Y70.341 E0.02524
G1 X146.967 Y71.300 E0.03689
G1 X147.211 Y71.951 E0.02180
G1 X147.316 Y72.713 E0.02410
G1 X147.318 Y137.209 E2.02224
G1 X147.201 Y138.085 E0.02770
G1 X146.872 Y138.894 E0.02740
G1 X146.319 Y139.626 E0.02876
G1 X145.615 Y140.174 E0.02797
G1 X144.784 Y140.527 E0.02831
G1 X143.927 Y140.652 E0.02717
G1 X106.115 Y140.653 E1.18556
G1 X105.247 Y140.536 E0.02747
G1 X104.441 Y140.207 E0.02729
G1 X103.709 Y139.654 E0.02876
G1 X103.157 Y138.944 E0.02819
G1 X102.805 Y138.109 E0.02842
G1 X102.682 Y137.236 E0.02763
G1 X102.682 Y72.791 E2.02063
G1 X102.799 Y71.915 E0.02770
G1 X103.106 Y71.162 E0.02552
G1 F8640
G1 X103.679 Y70.377 E-0.22440
G1 X104.373 Y69.834 E-0.20357
G1 X105.202 Y69.477 E-0.20829
G1 X105.732 Y69.397 E-0.12374
G1 E-0.04000 F2100.00000
G1 Z0.800 F10800.000
G1 X125.000 Y137.677
G1 Z0.200
G1 E0.80000 F2100.00000
G1 F1200
G1 X106.192 Y137.677 E0.58971
G1 X106.017 Y137.654 E0.00553
G1 X105.902 Y137.607 E0.00390
G1 X105.804 Y137.531 E0.00390
G1 X105.728 Y137.433 E0.00390
G1 X105.681 Y137.318 E0.00390
G1 X105.658 Y137.143 E0.00553
G1 X105.658 Y72.857 E2.01564
G1 X105.681 Y72.682 E0.00553
G1 X105.728 Y72.567 E0.00390
G1 X105.804 Y72.469 E0.00390
G1 X105.902 Y72.393 E0.00390
G1 X106.017 Y72.346 E0.00390
G1 X106.192 Y72.323 E0.00553
G1 X143.808 Y72.323 E1.17942
G1 X143.983 Y72.346 E0.00553
G1 X144.098 Y72.393 E0.00390
G1 X144.196 Y72.469 E0.00390
G1 X144.272 Y72.567 E0.00390
G1 X144.319 Y72.682 E0.00390
G1 X144.342 Y72.857 E0.00553
G1 X144.342 Y137.143 E2.01564
G1 X144.319 Y137.318 E0.00553
G1 X144.272 Y137.433 E0.00390
G1 X144.196 Y137.531 E0.00390
G1 X144.098 Y137.607 E0.00390
G1 X143.983 Y137.654 E0.00390
G1 X143.808 Y137.677 E0.00553
G1 X125.060 Y137.677 E0.58783
G1 X125.000 Y138.055 F10800.000
G1 F1200
G1 X106.167 Y138.055 E0.59048
G1 X105.919 Y138.022 E0.00786
G1 X105.712 Y137.936 E0.00701
G1 X105.535 Y137.800 E0.00701
G1 X105.399 Y137.623 E0.00701
G1 X105.313 Y137.416 E0.00701
G1 X105.280 Y137.168 E0.00786
G1 X105.280 Y72.832 E2.01719
G1 X105.313 Y72.584 E0.00786
G1 X105.399 Y72.377 E0.00701
G1 X105.535 Y72.200 E0.00701
G1 X105.712 Y72.064 E0.00701
G1 X105.919 Y71.978 E0.00701
G1 X106.167 Y71.945 E0.00786
G1 X143.833 Y71.945 E1.18097
G1 X144.081 Y71.978 E0.00786
G1 X144.288 Y72.064 E0.00701
G1 X144.465 Y72.200 E0.00701
G1 X144.601 Y72.377 E0.00701
G1 X144.687 Y72.584 E0.00701
G1 X144.720 Y72.832 E0.00786
G1 X144.720 Y137.168 E2.01719
G1 X144.687 Y137.416 E0.00786
G1 X144.601 Y137.623 E0.00701
G1 X144.465 Y137.800 E0.00701
G1 X144.288 Y137.936 E0.00701
G1 X144.081 Y138.022 E0.00701
G1 X143.833 Y138.055 E0.00786
G1 X125.060 Y138.055 E0.58860
G1 X124.800 Y137.708 F10800.000
G1 F8640
G1 X121.769 Y138.055 E-0.76000
G1 E-0.04000 F2100.00000
G1 Z0.800 F10800.000
G1 X105.771 Y136.562
G1 Z0.200
G1 E0.80000 F2100.00000
G1 F1200
G1 X106.604 Y137.395 E0.03704
G1 X107.138 Y137.395 E0.01681
G1 X105.940 Y136.197 E0.05326
G1 X105.940 Y135.662 E0.01681
G1 X107.673 Y137.395 E0.07703
G1 X108.208 Y137.395 E0.01681
G1 X105.940 Y135.127 E0.10080
G1 X105.940 Y134.593 E0.01681
G1 X108.742 Y137.395 E0.12456
G1 X109.277 Y137.395 E0.01681
G1 X105.940 Y134.058 E0.14833
G1 X105.940 Y133.523 E0.01681
G1 X109.812 Y137.395 E0.17210
G1 X110.346 Y137.395 E0.01681
G1 X105.940 Y132.989 E0.19587
G1 X105.940 Y132.454 E0.01681
G1 X110.881 Y137.395 E0.21964
G1 X111.416 Y137.395 E0.01681
G1 X105.940 Y131.919 E0.24340
G1 X105.940 Y131.385 E0.01681
G1 X111.950 Y137.395 E0.26717
G1 X112.485 Y137.395 E0.01681
G1 X105.940 Y130.850 E0.29094
G1 X105.940 Y130.316 E0.01681
G1 X113.019 Y137.395 E0.31471
G1 X113.554 Y137.395 E0.01681
G1 X105.940 Y129.781 E0.33847
G1 X105.940 Y129.246 E0.01681
G1 X114.089 Y137.395 E0.36224
G1 X114.623 Y137.395 E0.01681
G1 X105.940 Y128.712 E0.38601
G1 X105.940 Y128.177 E0.01681
G1 X115.158 Y137.395 E0.40978
G1 X115.693 Y137.395 E0.01681
G1 X105.940 Y127.642 E0.43354
G1 X105.940 Y127.108 E0.01681
G1 X116.227 Y137.395 E0.45731
G1 X116.762 Y137.395 E0.01681
G1 X105.940 Y126.573 E0.48108
G1 X105.940 Y126.038 E0.01681
G1 X117.297 Y137.395 E0.50485
G1 X117.831 Y137.395 E0.01681
G1 X105.940 Y125.504 E0.52862
G1 X105.940 Y124.969 E0.01681
G1 X118.366 Y137.395 E0.55238
G1 X118.901 Y137.395 E0.01681
G1 X105.940 Y124.434 E0.57615
G1 X105.940 Y123.900 E0.01681
G1 X119.435 Y137.395 E0.59992
G1 X119.970 Y137.395 E0.01681
G1 X105.940 Y123.365 E0.62369
G1 X105.940 Y122.831 E0.01681
G1 X120.504 Y137.395 E0.64745
G1 X121.039 Y137.395 E0.01681
G1 X105.940 Y122.296 E0.67122
G1 X105.940 Y121.761 E0.01681
G1 X121.574 Y137.395 E0.69499
G1 X122.108 Y137.395 E0.01681
G1 X105.940 Y121.227 E0.71876
G1 X105.940 Y120.692 E0.01681
G1 X122.643 Y137.395 E0.74253
G1 X123.178 Y137.395 E0.01681
G1 X105.940 Y120.157 E0.76629
G1 X105.940 Y119.623 E0.01681
G1 X123.712 Y137.395 E0.79006
M73 Q1 S61
G1 X124.247 Y137.395 E0.01681
G1 X105.940 Y119.088 E0.81383
M73 P1 R60
G1 X105.940 Y118.553 E0.01681
G1 X124.782 Y137.395 E0.83760
G1 X125.316 Y137.395 E0.01681
G1 X105.940 Y118.019 E0.86136
G1 X105.940 Y117.484 E0.01681
G1 X125.851 Y137.395 E0.88513
G1 X126.385 Y137.395 E0.01681
G1 X105.940 Y116.950 E0.90890
G1 X105.940 Y116.415 E0.01681
G1 X126.920 Y137.395 E0.93267
G1 X127.455 Y137.395 E0.01681
G1 X105.940 Y115.880 E0.95644
G1 X105.940 Y115.346 E0.01681
G1 X127.989 Y137.395 E0.98020
G1 X128.524 Y137.395 E0.01681
G1 X105.940 Y114.811 E1.00397
G1 X105.940 Y114.276 E0.01681
G1 X129.059 Y137.395 E1.02774
G1 X129.593 Y137.395 E0.01681
G1 X105.940 Y113.742 E1.05151
G1 X105.940 Y113.207 E0.01681
G1 X130.128 Y137.395 E1.07527
G1 X130.663 Y137.395 E0.01681
G1 X105.940 Y112.672 E1.09904
G1 X105.940 Y112.138 E0.01681
G1 X131.197 Y137.395 E1.12281
G1 X131.732 Y137.395 E0.01681
G1 X105.940 Y111.603 E1.14658
G1 X105.940 Y111.068 E0.01681
G1 X132.267 Y137.395 E1.17034
G1 X132.801 Y137.395 E0.01681
G1 X105.940 Y110.534 E1.19411
G1 X105.940 Y109.999 E0.01681
G1 X133.336 Y137.395 E1.21788
G1 X133.870 Y137.395 E0.01681
G1 X105.940 Y109.465 E1.24165
G1 X105.940 Y108.930 E0.01681
G1 X134.405 Y137.395 E1.26542
G1 X134.940 Y137.395 E0.01681
G1 X105.940 Y108.395 E1.28918
G1 X105.940 Y107.861 E0.01681
G1 X135.474 Y137.395 E1.31295
G1 X136.009 Y137.395 E0.01681
G1 X105.940 Y107.326 E1.33672
G1 X105.940 Y106.791 E0.01681
G1 X136.544 Y137.395 E1.36049
G1 X137.078 Y137.395 E0.01681
G1 X105.940 Y106.257 E1.38425
G1 X105.940 Y105.722 E0.01681
G1 X137.613 Y137.395 E1.40802
G1 X138.148 Y137.395 E0.01681
G1 X105.940 Y105.187 E1.43179
G1 X105.940 Y104.653 E0.01681
G1 X138.682 Y137.395 E1.45556
G1 X139.217 Y137.395 E0.01681
G1 X105.940 Y104.118 E1.47933
G1 X105.940 Y103.583 E0.01681
G1 X139.752 Y137.395 E1.50309
G1 X140.286 Y137.395 E0.01681
G1 X105.940 Y103.049 E1.52686
G1 X105.940 Y102.514 E0.01681
G1 X140.821 Y137.395 E1.55063
M73 Q3 S60
M73 P3 R59
G1 X141.355 Y137.395 E0.01681
G1 X105.940 Y101.980 E1.57440
G1 X105.940 Y101.445 E0.01681
G1 X141.890 Y137.395 E1.59816
G1 X142.425 Y137.395 E0.01681
G1 X105.940 Y100.910 E1.62193
G1 X105.940 Y100.376 E0.01681
G1 X142.959 Y137.395 E1.64570
G1 X143.494 Y137.395 E0.01681
G1 X105.940 Y99.841 E1.66947
G1 X105.940 Y99.306 E0.01681
G1 X143.977 Y137.343 E1.69094
G1 X144.025 Y137.290 E0.00225
G1 X144.060 Y137.124 E0.00532
G1 X144.060 Y136.891 E0.00734
G1 X105.940 Y98.772 E1.69461
G1 X105.940 Y98.237 E0.01681
G1 X144.060 Y136.356 E1.69461
G1 X144.060 Y135.822 E0.01681
G1 X105.940 Y97.702 E1.69461
G1 X105.940 Y97.168 E0.01681
G1 X144.060 Y135.287 E1.69461
G1 X144.060 Y134.752 E0.01681
G1 X105.940 Y96.633 E1.69461
G1 X105.940 Y96.099 E0.01681
G1 X144.060 Y134.218 E1.69461
G1 X144.060 Y133.683 E0.01681
G1 X105.940 Y95.564 E1.69461
G1 X105.940 Y95.029 E0.01681
G1 X144.060 Y133.149 E1.69461
G1 X144.060 Y132.614 E0.01681
G1 X105.940 Y94.495 E1.69461
G1 X105.940 Y93.960 E0.01681
G1 X144.060 Y132.079 E1.69461
G1 X144.060 Y131.545 E0.01681
G1 X105.940 Y93.425 E1.69461
G1 X105.940 Y92.891 E0.01681
G1 X144.060 Y131.010 E1.69461
G1 X144.060 Y130.475 E0.01681
G1 X105.940 Y92.356 E1.69461
G1 X105.940 Y91.821 E0.01681
G1 X144.060 Y129.941 E1.69461
G1 X144.060 Y129.406 E0.01681
G1 X105.940 Y91.287 E1.69461
G1 X105.940 Y90.752 E0.01681
G1 X144.060 Y128.871 E1.69461
G1 X144.060 Y128.337 E0.01681
G1 X105.940 Y90.217 E1.69461
M73 Q5 S59
M73 P5 R58
G1 X105.940 Y89.683 E0.01681
G1 X144.060 Y127.802 E1.69461
G1 X144.060 Y127.267 E0.01681
G1 X105.940 Y89.148 E1.69461
G1 X105.940 Y88.614 E0.01681
G1 X144.060 Y126.733 E1.69461
G1 X144.060 Y126.198 E0.01681
G1 X105.940 Y88.079 E1.69461
G1 X105.940 Y87.544 E0.01681
G1 X144.060 Y125.664 E1.69461
G1 X144.060 Y125.129 E0.01681
G1 X105.940 Y87.010 E1.69461
G1 X105.940 Y86.475 E0.01681
G1 X144.060 Y124.594 E1.69461
G1 X144.060 Y124.060 E0.01681
G1 X105.940 Y85.940 E1.69461
G1 X105.940 Y85.406 E0.01681
G1 X144.060 Y123.525 E1.69461
G1 X144.060 Y122.990 E0.01681
G1 X105.940 Y84.871 E1.69461
G1 X105.940 Y84.336 E0.01681
G1 X144.060 Y122.456 E1.69461
G1 X144.060 Y121.921 E0.01681
G1 X105.940 Y83.802 E1.69461
G1 X105.940 Y83.267 E0.01681
G1 X144.060 Y121.386 E1.69461
G1 X144.060 Y120.852 E0.01681
G1 X105.940 Y82.733 E1.69461
G1 X105.940 Y82.198 E0.01681
G1 X144.060 Y120.317 E1.69461
G1 X144.060 Y119.782 E0.01681
G1 X105.940 Y81.663 E1.69461
G1 X105.940 Y81.129 E0.01681
G1 X144.060 Y119.248 E1.69461
G1 X144.060 Y118.713 E0.01681
G1 X105.940 Y80.594 E1.69461
G1 X105.940 Y80.059 E0.01681
G1 X144.060 Y118.179 E1.69461
G1 X144.060 Y117.644 E0.01681
G1 X105.940 Y79.525 E1.69461
G1 X105.940 Y78.990 E0.01681
G1 X144.060 Y117.109 E1.69461
G1 X144.060 Y116.575 E0.01681
G1 X105.940 Y78.455 E1.69461
M73 Q6 S58
M73 P6 R57
G1 X105.940 Y77.921 E0.01681
G1 X144.060 Y116.040 E1.69461
G1 X144.060 Y115.505 E0.01681
G1 X105.940 Y77.386 E1.69461
G1 X105.940 Y76.851 E0.01681
G1 X144.060 Y114.971 E1.69461
G1 X144.060 Y114.436 E0.01681
G1 X105.940 Y76.317 E1.69461
G1 X105.940 Y75.782 E0.01681
G1 X144.060 Y113.901 E1.69461
G1 X144.060 Y113.367 E0.01681
G1 X105.940 Y75.248 E1.69461
G1 X105.940 Y74.713 E0.01681
G1 X144.060 Y112.832 E1.69461
G1 X144.060 Y112.298 E0.01681
G1 X105.940 Y74.178 E1.69461
G1 X105.940 Y73.644 E0.01681
G1 X144.060 Y111.763 E1.69461
G1 X144.060 Y111.228 E0.01681
G1 X105.940 Y73.109 E1.69461
G1 X105.940 Y72.876 E0.00734
G1 X105.956 Y72.756 E0.00379
G1 X106.023 Y72.657 E0.00376
G1 X144.060 Y110.694 E1.69094
G1 X144.060 Y110.159 E0.01681
G1 X106.506 Y72.605 E1.66947
G1 X107.041 Y72.605 E0.01681
G1 X144.060 Y109.624 E1.64570
G1 X144.060 Y109.090 E0.01681
G1 X107.575 Y72.605 E1.62193
G1 X108.110 Y72.605 E0.01681
G1 X144.060 Y108.555 E1.59816
G1 X144.060 Y108.020 E0.01681
G1 X108.645 Y72.605 E1.57439
G1 X109.179 Y72.605 E0.01681
G1 X144.060 Y107.486 E1.55063
G1 X144.060 Y106.951 E0.01681
G1 X109.714 Y72.605 E1.52686
G1 X110.249 Y72.605 E0.01681
G1 X144.060 Y106.416 E1.50309
G1 X144.060 Y105.882 E0.01681
G1 X110.783 Y72.605 E1.47932
G1 X111.318 Y72.605 E0.01681
G1 X144.060 Y105.347 E1.45556
G1 X144.060 Y104.813 E0.01681
G1 X111.852 Y72.605 E1.43179
G1 X112.387 Y72.605 E0.01681
G1 X144.060 Y104.278 E1.40802
G1 X144.060 Y103.743 E0.01681
G1 X112.922 Y72.605 E1.38425
M73 Q8 S57
M73 P8 R56
G1 X113.456 Y72.605 E0.01681
G1 X144.060 Y103.209 E1.36048
G1 X144.060 Y102.674 E0.01681
G1 X113.991 Y72.605 E1.33672
G1 X114.526 Y72.605 E0.01681
G1 X144.060 Y102.139 E1.31295
G1 X144.060 Y101.605 E0.01681
G1 X115.060 Y72.605 E1.28918
G1 X115.595 Y72.605 E0.01681
G1 X144.060 Y101.070 E1.26541
G1 X144.060 Y100.535 E0.01681
G1 X116.130 Y72.605 E1.24165
G1 X116.664 Y72.605 E0.01681
G1 X144.060 Y100.001 E1.21788
G1 X144.060 Y99.466 E0.01681
G1 X117.199 Y72.605 E1.19411
G1 X117.733 Y72.605 E0.01681
G1 X144.060 Y98.932 E1.17034
G1 X144.060 Y98.397 E0.01681
G1 X118.268 Y72.605 E1.14658
G1 X118.803 Y72.605 E0.01681
G1 X144.060 Y97.862 E1.12281
G1 X144.060 Y97.328 E0.01681
G1 X119.337 Y72.605 E1.09904
G1 X119.872 Y72.605 E0.01681
G1 X144.060 Y96.793 E1.07527
G1 X144.060 Y96.258 E0.01681
G1 X120.407 Y72.605 E1.05150
G1 X120.941 Y72.605 E0.01681
G1 X144.060 Y95.724 E1.02774
G1 X144.060 Y95.189 E0.01681
G1 X121.476 Y72.605 E1.00397
G1 X122.011 Y72.605 E0.01681
G1 X144.060 Y94.654 E0.98020
G1 X144.060 Y94.120 E0.01681
G1 X122.545 Y72.605 E0.95643
G1 X123.080 Y72.605 E0.01681
G1 X144.060 Y93.585 E0.93267
G1 X144.060 Y93.050 E0.01681
G1 X123.615 Y72.605 E0.90890
G1 X124.149 Y72.605 E0.01681
G1 X144.060 Y92.516 E0.88513
G1 X144.060 Y91.981 E0.01681
G1 X124.684 Y72.605 E0.86136
G1 X125.218 Y72.605 E0.01681
G1 X144.060 Y91.447 E0.83759
G1 X144.060 Y90.912 E0.01681
G1 X125.753 Y72.605 E0.81383
G1 X126.288 Y72.605 E0.01681
G1 X144.060 Y90.377 E0.79006
G1 X144.060 Y89.843 E0.01681
G1 X126.822 Y72.605 E0.76629
G1 X127.357 Y72.605 E0.01681
G1 X144.060 Y89.308 E0.74252
G1 X144.060 Y88.773 E0.01681
G1 X127.892 Y72.605 E0.71876
G1 X128.426 Y72.605 E0.01681
G1 X144.060 Y88.239 E0.69499
G1 X144.060 Y87.704 E0.01681
G1 X128.961 Y72.605 E0.67122
G1 X129.496 Y72.605 E0.01681
G1 X144.060 Y87.169 E0.64745
G1 X144.060 Y86.635 E0.01681
G1 X130.030 Y72.605 E0.62369
G1 X130.565 Y72.605 E0.01681
G1 X144.060 Y86.100 E0.59992
G1 X144.060 Y85.565 E0.01681
G1 X131.100 Y72.605 E0.57615
G1 X131.634 Y72.605 E0.01681
G1 X144.060 Y85.031 E0.55238
G1 X144.060 Y84.496 E0.01681
G1 X132.169 Y72.605 E0.52861
G1 X132.703 Y72.605 E0.01681
G1 X144.060 Y83.962 E0.50485
G1 X144.060 Y83.427 E0.01681
G1 X133.238 Y72.605 E0.48108
G1 X133.773 Y72.605 E0.01681
G1 X144.060 Y82.892 E0.45731
G1 X144.060 Y82.358 E0.01681
G1 X134.307 Y72.605 E0.43354
G1 X134.842 Y72.605 E0.01681
G1 X144.060 Y81.823 E0.40978
G1 X144.060 Y81.288 E0.01681
G1 X135.377 Y72.605 E0.38601
G1 X135.911 Y72.605 E0.01681
G1 X144.060 Y80.754 E0.36224
M73 Q9 S56
M73 P10 R55
G1 X144.060 Y80.219 E0.01681
G1 X136.446 Y72.605 E0.33847
G1 X136.981 Y72.605 E0.01681
G1 X144.060 Y79.684 E0.31470
G1 X144.060 Y79.150 E0.01681
G1 X137.515 Y72.605 E0.29094
G1 X138.050 Y72.605 E0.01681
G1 X144.060 Y78.615 E0.26717
G1 X144.060 Y78.081 E0.01681
G1 X138.584 Y72.605 E0.24340
G1 X139.119 Y72.605 E0.01681
G1 X144.060 Y77.546 E0.21963
G1 X144.060 Y77.011 E0.01681
G1 X139.654 Y72.605 E0.19587
G1 X140.188 Y72.605 E0.01681
G1 X144.060 Y76.477 E0.17210
G1 X144.060 Y75.942 E0.01681
G1 X140.723 Y72.605 E0.14833
G1 X141.258 Y72.605 E0.01681
G1 X144.060 Y75.407 E0.12456
G1 X144.060 Y74.873 E0.01681
G1 X141.792 Y72.605 E0.10079
G1 X142.327 Y72.605 E0.01681
G1 X144.060 Y74.338 E0.07703
G1 X144.060 Y73.803 E0.01681
G1 X142.862 Y72.605 E0.05326
G1 X143.396 Y72.605 E0.01681
