; generated by PrusaSlicer 2.1.0+linux64 on 2019-09-26 at 17:07:30 UTC

; 

; external perimeters extrusion width = 0.45mm
; perimeters extrusion width = 0.45mm
; infill extrusion width = 0.45mm
; solid infill extrusion width = 0.45mm
; top infill extrusion width = 0.40mm
; first layer extrusion width = 0.42mm

M73 P0 R76
M73 Q0 S77
M201 X1000 Y1000 Z1000 E5000 ; sets maximum accelerations, mm/sec^2
M203 X200 Y200 Z12 E120 ; sets maximum feedrates, mm/sec
M204 P1250 R1250 T1250 ; sets acceleration (P, T) and retract acceleration (R), mm/sec^2
M205 X8.00 Y8.00 Z0.40 E1.50 ; sets the jerk limits, mm/sec
M205 S0 T0 ; sets the minimum extruding and travel feed rate, mm/sec
M107
M862.3 P "MK3S" ; printer model check
M862.1 P0.4 ; nozzle diameter check
M115 U3.8.0 ; tell printer latest fw version
G90 ; use absolute coordinates
M83 ; extruder relative mode
M104 S215 ; set extruder temp
M140 S60 ; set bed temp
M190 S60 ; wait for bed temp
M109 S215 ; wait for extruder temp
G28 W ; home all without mesh bed level
G80 ; mesh bed leveling
G1 Y-3.0 F1000.0 ; go outside print area
G92 E0.0
G1 X60.0 E9.0 F1000.0 ; intro line
M73 Q0 S77
M73 P0 R76
G1 X100.0 E12.5 F1000.0 ; intro line
G92 E0.0
M221 S95
G21 ; set units to millimeters
G90 ; use absolute coordinates
M83 ; use relative distances for extrusion
M900 K30 ; Filament gcode
;BEFORE_LAYER_CHANGE
G92 E0.0
;0.2


G1 E-0.80000 F2100.00000
G1 Z0.600 F10800.000
;AFTER_LAYER_CHANGE
;0.2
G1 X91.474 Y82.683
G1 Z0.200
G1 E0.80000 F2100.00000
M204 S1000
G1 F1200
G1 X158.468 Y82.682 E2.10054
G1 X158.975 Y82.742 E0.01601
G1 X165.367 Y84.341 E0.20660
G1 X166.336 Y84.666 E0.03204
G1 X167.304 Y85.156 E0.03400
G1 X168.142 Y85.747 E0.03217
G1 X168.819 Y86.381 E0.02908
G1 X169.583 Y87.331 E0.03821
G1 X170.174 Y88.405 E0.03844
G1 X170.502 Y89.273 E0.02908
G1 X170.720 Y90.227 E0.03068
G1 X170.813 Y91.377 E0.03618
G1 X170.813 Y118.630 E0.85452
G1 X170.742 Y119.632 E0.03147
G1 X170.508 Y120.705 E0.03446
G1 X170.174 Y121.594 E0.02976
G1 X169.511 Y122.769 E0.04232
G1 X168.917 Y123.519 E0.02999
G1 X168.157 Y124.241 E0.03286
G1 X167.295 Y124.849 E0.03309
G1 X166.463 Y125.276 E0.02931
G1 X165.322 Y125.671 E0.03787
G1 X158.526 Y127.317 E0.21926
G1 X91.448 Y127.316 E2.10317
G1 X84.678 Y125.671 E0.21843
G1 X83.567 Y125.291 E0.03684
G1 X82.589 Y124.774 E0.03467
G1 X81.846 Y124.243 E0.02862
G1 X81.176 Y123.614 E0.02885
G1 X80.431 Y122.690 E0.03719
G1 X79.905 Y121.772 E0.03320
G1 X79.462 Y120.589 E0.03958
G1 X79.264 Y119.680 E0.02919
G1 X79.187 Y118.667 E0.03183
G1 X79.187 Y91.373 E0.85579
G1 X79.252 Y90.419 E0.02998
G1 X79.490 Y89.302 E0.03582
G1 X79.822 Y88.416 E0.02965
G1 X80.482 Y87.239 E0.04231
G1 X81.081 Y86.484 E0.03022
G1 X81.843 Y85.759 E0.03297
G1 X82.705 Y85.151 E0.03308
G1 X83.537 Y84.724 E0.02931
G1 X84.678 Y84.329 E0.03787
G1 X91.416 Y82.697 E0.21738
G1 F8640
G1 X94.708 Y82.696 E-0.76000
G1 E-0.04000 F2100.00000
G1 Z0.800 F10800.000
G1 X87.094 Y102.195
G1 Z0.200
G1 E0.80000 F2100.00000
G1 F1200
G1 X87.704 Y102.408 E0.02025
G1 X88.249 Y102.751 E0.02020
G1 X88.705 Y103.206 E0.02020
G1 X89.047 Y103.752 E0.02020
G1 X89.260 Y104.360 E0.02020
G1 X89.332 Y105.000 E0.02020
G1 X89.260 Y105.640 E0.02020
G1 X89.047 Y106.248 E0.02020
G1 X88.705 Y106.794 E0.02020
G1 X88.249 Y107.249 E0.02020
G1 X87.704 Y107.592 E0.02020
G1 X87.109 Y107.800 E0.01975
G1 X86.457 Y107.877 E0.02058
G1 X85.815 Y107.805 E0.02025
G1 X85.207 Y107.592 E0.02020
G1 X84.662 Y107.249 E0.02020
G1 X84.206 Y106.794 E0.02020
G1 X83.864 Y106.248 E0.02020
G1 X83.651 Y105.640 E0.02020
G1 X83.579 Y105.000 E0.02020
G1 X83.651 Y104.360 E0.02020
G1 X83.864 Y103.752 E0.02020
G1 X84.206 Y103.206 E0.02020
G1 X84.662 Y102.751 E0.02020
G1 X85.207 Y102.408 E0.02020
G1 X85.815 Y102.195 E0.02020
G1 X86.441 Y102.125 E0.01975
G1 X87.034 Y102.188 E0.01870
G1 X86.994 Y102.563 F10800.000
G1 F1200
G1 X87.539 Y102.750 E0.01806
G1 X88.013 Y103.048 E0.01753
G1 X88.408 Y103.443 E0.01753
G1 X88.706 Y103.916 E0.01753
G1 X88.890 Y104.444 E0.01753
G1 X88.953 Y105.000 E0.01753
G1 X88.890 Y105.556 E0.01753
G1 X88.706 Y106.084 E0.01753
G1 X88.408 Y106.557 E0.01753
G1 X88.013 Y106.952 E0.01753
G1 X87.539 Y107.250 E0.01753
G1 X87.024 Y107.430 E0.01712
G1 X86.456 Y107.497 E0.01792
G1 X85.900 Y107.435 E0.01755
G1 X85.372 Y107.250 E0.01753
G1 X84.898 Y106.952 E0.01753
G1 X84.503 Y106.557 E0.01753
G1 X84.205 Y106.084 E0.01753
G1 X84.021 Y105.556 E0.01753
G1 X83.958 Y105.000 E0.01753
G1 X84.021 Y104.444 E0.01753
G1 X84.205 Y103.916 E0.01753
G1 X84.503 Y103.443 E0.01753
G1 X84.898 Y103.048 E0.01753
G1 X85.372 Y102.750 E0.01753
G1 X85.900 Y102.565 E0.01753
G1 X86.442 Y102.504 E0.01712
G1 X86.935 Y102.557 E0.01552
G1 X87.265 Y102.269 F10800.000
G1 F8640
G1 X87.539 Y102.750 E-0.14651
G1 X88.013 Y103.048 E-0.12913
G1 X88.408 Y103.443 E-0.12913
G1 X88.706 Y103.916 E-0.12913
G1 X88.890 Y104.444 E-0.12913
G1 X88.937 Y104.862 E-0.09698
G1 E-0.04000 F2100.00000
G1 Z0.800 F10800.000
G1 X160.668 Y105.000
G1 Z0.200
G1 E0.80000 F2100.00000
G1 F1200
G1 X160.740 Y104.360 E0.02020
G1 X160.953 Y103.752 E0.02020
G1 X161.295 Y103.206 E0.02020
G1 X161.751 Y102.751 E0.02020
G1 X162.296 Y102.408 E0.02020
G1 X162.904 Y102.195 E0.02020
G1 X163.530 Y102.125 E0.01975
G1 X164.183 Y102.195 E0.02058
G1 X164.793 Y102.408 E0.02025
G1 X165.338 Y102.751 E0.02020
G1 X165.794 Y103.206 E0.02020
G1 X166.136 Y103.752 E0.02020
G1 X166.349 Y104.360 E0.02020
G1 X166.421 Y105.000 E0.02020
G1 X166.349 Y105.640 E0.02020
G1 X166.136 Y106.248 E0.02020
G1 X165.794 Y106.794 E0.02020
G1 X165.338 Y107.249 E0.02020
G1 X164.793 Y107.592 E0.02020
G1 X164.185 Y107.805 E0.02020
G1 X163.545 Y107.877 E0.02020
G1 X162.904 Y107.805 E0.02020
G1 X162.296 Y107.592 E0.02020
G1 X161.751 Y107.249 E0.02020
G1 X161.295 Y106.794 E0.02020
G1 X160.953 Y106.248 E0.02020
G1 X160.740 Y105.640 E0.02020
G1 X160.674 Y105.060 E0.01832
G1 X161.049 Y105.017 F10800.000
G1 F1200
G1 X161.110 Y104.444 E0.01807
G1 X161.294 Y103.916 E0.01753
G1 X161.592 Y103.443 E0.01753
G1 X161.987 Y103.048 E0.01753
G1 X162.461 Y102.750 E0.01753
G1 X162.989 Y102.565 E0.01753
G1 X163.531 Y102.504 E0.01712
G1 X164.100 Y102.565 E0.01792
G1 X164.628 Y102.750 E0.01755
G1 X165.102 Y103.048 E0.01753
G1 X165.497 Y103.443 E0.01753
G1 X165.795 Y103.916 E0.01753
G1 X165.979 Y104.444 E0.01753
G1 X166.042 Y105.000 E0.01753
G1 X165.979 Y105.556 E0.01753
G1 X165.795 Y106.084 E0.01753
G1 X165.497 Y106.557 E0.01753
G1 X165.102 Y106.952 E0.01753
G1 X164.628 Y107.250 E0.01753
G1 X164.100 Y107.435 E0.01753
G1 X163.545 Y107.497 E0.01753
G1 X162.989 Y107.435 E0.01753
G1 X162.461 Y107.250 E0.01753
G1 X161.987 Y106.952 E0.01753
G1 X161.592 Y106.557 E0.01753
G1 X161.294 Y106.084 E0.01753
G1 X161.110 Y105.556 E0.01753
G1 X161.056 Y105.077 E0.01510
G1 X160.702 Y104.819 F10800.000
G1 F8640
G1 X161.110 Y104.444 E-0.14663
G1 X161.294 Y103.916 E-0.12913
G1 X161.592 Y103.443 E-0.12912
G1 X161.987 Y103.048 E-0.12913
G1 X162.461 Y102.750 E-0.12913
G1 X162.857 Y102.611 E-0.09687
G1 E-0.04000 F2100.00000
G1 Z0.800 F10800.000
G1 X158.392 Y124.542
G1 Z0.200
G1 E0.80000 F2100.00000
G1 F1200
G1 X91.608 Y124.542 E2.09398
G1 X85.387 Y122.987 E0.20106
G1 X84.738 Y122.773 E0.02141
G1 X84.148 Y122.476 E0.02073
G1 X83.607 Y122.096 E0.02073
G1 X83.128 Y121.640 E0.02073
G1 X82.722 Y121.119 E0.02073
G1 X82.396 Y120.544 E0.02073
G1 X82.158 Y119.927 E0.02073
G1 X82.013 Y119.282 E0.02073
G1 X81.963 Y118.602 E0.02141
G1 X81.963 Y91.398 E0.85293
G1 X82.013 Y90.718 E0.02141
G1 X82.158 Y90.073 E0.02073
G1 X82.396 Y89.456 E0.02073
G1 X82.722 Y88.881 E0.02073
G1 X83.128 Y88.360 E0.02073
G1 X83.607 Y87.904 E0.02073
G1 X84.148 Y87.524 E0.02073
G1 X84.738 Y87.227 E0.02073
G1 X85.387 Y87.013 E0.02141
G1 X91.608 Y85.458 E0.20106
G1 X158.392 Y85.458 E2.09398
G1 X164.613 Y87.013 E0.20106
G1 X165.262 Y87.227 E0.02141
G1 X165.852 Y87.524 E0.02073
G1 X166.393 Y87.904 E0.02073
G1 X166.872 Y88.360 E0.02073
G1 X167.278 Y88.881 E0.02073
G1 X167.604 Y89.456 E0.02073
G1 X167.842 Y90.073 E0.02073
G1 X167.987 Y90.718 E0.02073
G1 X168.037 Y91.398 E0.02141
G1 X168.037 Y118.602 E0.85293
G1 X167.987 Y119.282 E0.02141
G1 X167.842 Y119.927 E0.02073
G1 X167.604 Y120.544 E0.02073
G1 X167.278 Y121.119 E0.02073
G1 X166.872 Y121.640 E0.02073
G1 X166.393 Y122.096 E0.02073
G1 X165.852 Y122.476 E0.02073
G1 X165.262 Y122.773 E0.02073
G1 X164.613 Y122.987 E0.02141
G1 X158.450 Y124.528 E0.19918
G1 X158.542 Y124.894 F10800.000
G1 F1200
G1 X158.439 Y124.920 E0.00334
G1 X91.561 Y124.920 E2.09689
G1 X85.282 Y123.350 E0.20295
G1 X84.594 Y123.123 E0.02271
G1 X83.954 Y122.801 E0.02247
G1 X83.368 Y122.388 E0.02247
G1 X82.848 Y121.894 E0.02247
G1 X82.407 Y121.329 E0.02247
G1 X82.054 Y120.706 E0.02247
G1 X81.796 Y120.037 E0.02247
G1 X81.639 Y119.338 E0.02247
G1 X81.585 Y118.615 E0.02271
G1 X81.585 Y91.385 E0.85380
G1 X81.639 Y90.662 E0.02271
G1 X81.796 Y89.963 E0.02247
G1 X82.054 Y89.294 E0.02247
G1 X82.407 Y88.671 E0.02247
G1 X82.848 Y88.106 E0.02247
G1 X83.368 Y87.612 E0.02247
G1 X83.954 Y87.199 E0.02247
G1 X84.594 Y86.877 E0.02247
G1 X85.282 Y86.650 E0.02271
G1 X91.561 Y85.080 E0.20295
G1 X158.439 Y85.080 E2.09689
G1 X164.718 Y86.650 E0.20295
G1 X165.406 Y86.877 E0.02271
G1 X166.046 Y87.199 E0.02247
G1 X166.632 Y87.612 E0.02247
G1 X167.152 Y88.106 E0.02247
G1 X167.593 Y88.671 E0.02247
G1 X167.946 Y89.294 E0.02247
G1 X168.204 Y89.963 E0.02247
G1 X168.361 Y90.662 E0.02247
G1 X168.415 Y91.385 E0.02271
G1 X168.415 Y118.615 E0.85380
G1 X168.361 Y119.338 E0.02271
G1 X168.204 Y120.037 E0.02247
G1 X167.946 Y120.706 E0.02247
G1 X167.593 Y121.329 E0.02247
G1 X167.152 Y121.894 E0.02247
G1 X166.632 Y122.388 E0.02247
G1 X166.046 Y122.801 E0.02247
G1 X165.406 Y123.123 E0.02247
G1 X164.718 Y123.350 E0.02271
G1 X158.600 Y124.879 E0.19773
G1 X158.468 Y124.817 F10800.000
G1 F8640
G1 X158.439 Y124.920 E-0.03843
G1 X155.314 Y124.920 E-0.72157
G1 E-0.04000 F2100.00000
G1 Z0.800 F10800.000
G1 X167.924 Y114.451
G1 Z0.200
G1 E0.80000 F2100.00000
G1 F1200
G1 X139.214 Y85.740 E1.27857
G1 X138.679 Y85.740 E0.01687
G1 X167.755 Y114.816 E1.29486
G1 X167.755 Y115.352 E0.01687
G1 X138.143 Y85.740 E1.31872
G1 X137.607 Y85.740 E0.01687
G1 X167.755 Y115.888 E1.34257
G1 X167.755 Y116.423 E0.01687
G1 X137.072 Y85.740 E1.36642
G1 X136.536 Y85.740 E0.01687
G1 X167.755 Y116.959 E1.39027
G1 X167.755 Y117.494 E0.01687
G1 X136.001 Y85.740 E1.41412
M73 Q1 S76
M73 P1 R75
G1 X135.465 Y85.740 E0.01687
G1 X167.755 Y118.030 E1.43797
G1 X167.755 Y118.566 E0.01687
G1 X134.929 Y85.740 E1.46182
G1 X134.394 Y85.740 E0.01687
G1 X167.720 Y119.066 E1.48411
G1 X167.707 Y119.241 E0.00552
G1 X167.643 Y119.525 E0.00917
G1 X133.858 Y85.740 E1.50455
G1 X133.323 Y85.740 E0.01687
G1 X167.531 Y119.949 E1.52342
G1 X167.382 Y120.335 E0.01304
G1 X132.787 Y85.740 E1.54063
G1 X132.252 Y85.740 E0.01687
G1 X167.198 Y120.687 E1.55630
G1 X166.996 Y121.021 E0.01228
G1 X131.716 Y85.740 E1.57117
G1 X131.180 Y85.740 E0.01687
G1 X166.762 Y121.322 E1.58456
G1 X166.662 Y121.450 E0.00512
G1 X166.504 Y121.600 E0.00685
G1 X130.645 Y85.740 E1.59694
G1 X130.109 Y85.740 E0.01687
G1 X166.230 Y121.861 E1.60857
G1 X165.918 Y122.084 E0.01209
G1 X129.574 Y85.740 E1.61853
G1 X129.038 Y85.740 E0.01687
G1 X165.590 Y122.292 E1.62777
G1 X165.233 Y122.471 E0.01256
G1 X128.503 Y85.740 E1.63575
G1 X127.967 Y85.740 E0.01687
G1 X164.841 Y122.614 E1.64213
G1 X164.432 Y122.741 E0.01348
G1 X127.431 Y85.740 E1.64777
G1 X126.896 Y85.740 E0.01687
G1 X164.004 Y122.848 E1.65254
G1 X163.575 Y122.955 E0.01391
G1 X126.360 Y85.740 E1.65731
G1 X125.825 Y85.740 E0.01687
G1 X163.147 Y123.062 E1.66208
G1 X162.718 Y123.169 E0.01391
G1 X125.289 Y85.740 E1.66685
G1 X124.753 Y85.740 E0.01687
G1 X162.290 Y123.277 E1.67162
G1 X161.861 Y123.384 E0.01391
G1 X124.218 Y85.740 E1.67639
G1 X123.682 Y85.740 E0.01687
G1 X161.433 Y123.491 E1.68116
G1 X161.004 Y123.598 E0.01391
G1 X123.147 Y85.740 E1.68593
M73 Q2 S75
M73 P2 R74
G1 X122.611 Y85.740 E0.01687
G1 X160.576 Y123.705 E1.69070
G1 X160.147 Y123.812 E0.01391
G1 X122.076 Y85.740 E1.69547
G1 X121.540 Y85.740 E0.01687
G1 X159.719 Y123.919 E1.70025
G1 X159.290 Y124.026 E0.01391
G1 X121.004 Y85.740 E1.70502
G1 X120.469 Y85.740 E0.01687
G1 X158.862 Y124.133 E1.70979
G1 X158.434 Y124.241 E0.01391
G1 X119.933 Y85.740 E1.71456
G1 X119.398 Y85.740 E0.01687
G1 X157.917 Y124.260 E1.71540
G1 X157.381 Y124.260 E0.01687
G1 X118.862 Y85.740 E1.71540
G1 X118.327 Y85.740 E0.01687
G1 X156.846 Y124.260 E1.71540
G1 X156.310 Y124.260 E0.01687
G1 X117.791 Y85.740 E1.71540
G1 X117.255 Y85.740 E0.01687
G1 X155.775 Y124.260 E1.71540
G1 X155.239 Y124.260 E0.01687
G1 X116.720 Y85.740 E1.71540
G1 X116.184 Y85.740 E0.01687
G1 X154.703 Y124.260 E1.71540
G1 X154.168 Y124.260 E0.01687
G1 X115.649 Y85.740 E1.71540
G1 X115.113 Y85.740 E0.01687
G1 X153.632 Y124.260 E1.71540
G1 X153.097 Y124.260 E0.01687
G1 X114.577 Y85.740 E1.71540
G1 X114.042 Y85.740 E0.01687
G1 X152.561 Y124.260 E1.71540
G1 X152.026 Y124.260 E0.01687
G1 X113.506 Y85.740 E1.71540
G1 X112.971 Y85.740 E0.01687
G1 X151.490 Y124.260 E1.71540
G1 X150.954 Y124.260 E0.01687
G1 X112.435 Y85.740 E1.71540
G1 X111.900 Y85.740 E0.01687
G1 X150.419 Y124.260 E1.71540
G1 X149.883 Y124.260 E0.01687
G1 X111.364 Y85.740 E1.71540
M73 Q4 S74
M73 P4 R73
G1 X110.828 Y85.740 E0.01687
G1 X149.348 Y124.260 E1.71540
G1 X148.812 Y124.260 E0.01687
G1 X110.293 Y85.740 E1.71540
G1 X109.757 Y85.740 E0.01687
G1 X148.277 Y124.260 E1.71540
G1 X147.741 Y124.260 E0.01687
G1 X109.222 Y85.740 E1.71540
G1 X108.686 Y85.740 E0.01687
G1 X147.205 Y124.260 E1.71540
G1 X146.670 Y124.260 E0.01687
G1 X108.151 Y85.740 E1.71540
G1 X107.615 Y85.740 E0.01687
G1 X146.134 Y124.260 E1.71540
G1 X145.599 Y124.260 E0.01687
G1 X107.079 Y85.740 E1.71540
G1 X106.544 Y85.740 E0.01687
G1 X145.063 Y124.260 E1.71540
G1 X144.527 Y124.260 E0.01687
G1 X106.008 Y85.740 E1.71540
G1 X105.473 Y85.740 E0.01687
G1 X143.992 Y124.260 E1.71540
G1 X143.456 Y124.260 E0.01687
G1 X104.937 Y85.740 E1.71540
G1 X104.401 Y85.740 E0.01687
G1 X142.921 Y124.260 E1.71540
G1 X142.385 Y124.260 E0.01687
G1 X103.866 Y85.740 E1.71540
G1 X103.330 Y85.740 E0.01687
G1 X141.850 Y124.260 E1.71540
G1 X141.314 Y124.260 E0.01687
G1 X102.795 Y85.740 E1.71540
G1 X102.259 Y85.740 E0.01687
G1 X140.778 Y124.260 E1.71540
G1 X140.243 Y124.260 E0.01687
G1 X101.724 Y85.740 E1.71540
G1 X101.188 Y85.740 E0.01687
G1 X139.707 Y124.260 E1.71540
G1 X139.172 Y124.260 E0.01687
G1 X100.652 Y85.740 E1.71540
G1 X100.117 Y85.740 E0.01687
G1 X138.636 Y124.260 E1.71540
G1 X138.101 Y124.260 E0.01687
G1 X99.581 Y85.740 E1.71540
M73 Q5 S73
M73 P5 R72
G1 X99.046 Y85.740 E0.01687
G1 X137.565 Y124.260 E1.71540
G1 X137.029 Y124.260 E0.01687
G1 X98.510 Y85.740 E1.71540
G1 X97.974 Y85.740 E0.01687
G1 X136.494 Y124.260 E1.71540
G1 X135.958 Y124.260 E0.01687
G1 X97.439 Y85.740 E1.71540
G1 X96.903 Y85.740 E0.01687
G1 X135.423 Y124.260 E1.71540
G1 X134.887 Y124.260 E0.01687
G1 X96.368 Y85.740 E1.71540
G1 X95.832 Y85.740 E0.01687
G1 X134.351 Y124.260 E1.71540
G1 X133.816 Y124.260 E0.01687
G1 X95.297 Y85.740 E1.71540
G1 X94.761 Y85.740 E0.01687
G1 X133.280 Y124.260 E1.71540
G1 X132.745 Y124.260 E0.01687
G1 X94.225 Y85.740 E1.71540
G1 X93.690 Y85.740 E0.01687
G1 X132.209 Y124.260 E1.71540
G1 X131.674 Y124.260 E0.01687
G1 X93.154 Y85.740 E1.71540
G1 X92.619 Y85.740 E0.01687
G1 X131.138 Y124.260 E1.71540
G1 X130.602 Y124.260 E0.01687
G1 X92.083 Y85.740 E1.71540
G1 X91.643 Y85.740 E0.01387
G1 X91.567 Y85.759 E0.00247
G1 X130.067 Y124.260 E1.71456
G1 X129.531 Y124.260 E0.01687
G1 X91.138 Y85.866 E1.70979
G1 X90.710 Y85.974 E0.01391
G1 X128.996 Y124.260 E1.70502
G1 X128.460 Y124.260 E0.01687
G1 X90.281 Y86.081 E1.70025
G1 X89.853 Y86.188 E0.01391
G1 X127.924 Y124.260 E1.69548
G1 X127.389 Y124.260 E0.01687
G1 X89.424 Y86.295 E1.69071
G1 X88.996 Y86.402 E0.01391
G1 X126.853 Y124.260 E1.68593
G1 X126.318 Y124.260 E0.01687
G1 X88.567 Y86.509 E1.68116
M73 Q6 S72
M73 P6 R71
G1 X88.139 Y86.616 E0.01391
G1 X125.782 Y124.260 E1.67639
G1 X125.247 Y124.260 E0.01687
G1 X87.710 Y86.723 E1.67162
G1 X87.282 Y86.831 E0.01391
G1 X124.711 Y124.260 E1.66685
G1 X124.175 Y124.260 E0.01687
G1 X86.853 Y86.938 E1.66208
G1 X86.425 Y87.045 E0.01391
