; generated by PrusaSlicer 2.1.0+linux64 on 2019-09-30 at 02:01:31 UTC

; 

; external perimeters extrusion width = 0.45mm
; perimeters extrusion width = 0.45mm
; infill extrusion width = 0.45mm
; solid infill extrusion width = 0.45mm
; top infill extrusion width = 0.40mm
; first layer extrusion width = 0.42mm

M73 P0 R169
M73 Q0 S170
M201 X1000 Y1000 Z1000 E5000 ; sets maximum accelerations, mm/sec^2
M203 X200 Y200 Z12 E120 ; sets maximum feedrates, mm/sec
M204 P1250 R1250 T1250 ; sets acceleration (P, T) and retract acceleration (R), mm/sec^2
M205 X8.00 Y8.00 Z0.40 E1.50 ; sets the jerk limits, mm/sec
M205 S0 T0 ; sets the minimum extruding and travel feed rate, mm/sec
M107
M862.3 P "MK3S" ; printer model check
M862.1 P0.4 ; nozzle diameter check
M115 U3.8.0 ; tell printer latest fw version
G90 ; use absolute coordinates
M83 ; extruder relative mode
M104 S215 ; set extruder temp
M140 S60 ; set bed temp
M190 S60 ; wait for bed temp
M109 S215 ; wait for extruder temp
G28 W ; home all without mesh bed level
G80 ; mesh bed leveling
G1 Y-3.0 F1000.0 ; go outside print area
G92 E0.0
G1 X60.0 E9.0 F1000.0 ; intro line
M73 Q0 S170
M73 P0 R169
G1 X100.0 E12.5 F1000.0 ; intro line
G92 E0.0
M221 S95
G21 ; set units to millimeters
G90 ; use absolute coordinates
M83 ; use relative distances for extrusion
M900 K30 ; Filament gcode
;BEFORE_LAYER_CHANGE
G92 E0.0
;0.2


G1 E-0.80000 F2100.00000
G1 Z0.600 F10800.000
;AFTER_LAYER_CHANGE
;0.2
G1 X27.683 Y71.481
G1 Z0.200
G1 E0.80000 F2100.00000
M204 S1000
G1 F1200
G1 X29.326 Y64.689 E0.21909
G1 X29.607 Y63.821 E0.02861
G1 X30.229 Y62.586 E0.04336
G1 X30.785 Y61.813 E0.02985
G1 X31.603 Y60.979 E0.03662
G1 X32.355 Y60.401 E0.02976
G1 X33.291 Y59.875 E0.03366
G1 X34.273 Y59.498 E0.03297
G1 X35.335 Y59.262 E0.03411
G1 X36.373 Y59.187 E0.03263
G1 X63.627 Y59.187 E0.85453
G1 X218.339 Y70.546 E4.86395
G1 X218.829 Y70.639 E0.01564
G1 X219.433 Y70.878 E0.02035
G1 X220.167 Y71.400 E0.02825
G1 X220.613 Y71.933 E0.02181
G1 X220.987 Y72.713 E0.02712
G1 X221.138 Y73.612 E0.02858
G1 X221.138 Y136.352 E1.96715
G1 X221.060 Y137.022 E0.02115
G1 X220.857 Y137.611 E0.01956
G1 X220.387 Y138.373 E0.02807
G1 X219.756 Y138.925 E0.02627
G1 X218.957 Y139.318 E0.02791
G1 X218.364 Y139.452 E0.01908
G1 X63.769 Y150.808 E4.86027
G1 X36.326 Y150.812 E0.86046
G1 X35.321 Y150.736 E0.03159
G1 X34.408 Y150.538 E0.02931
G1 X33.226 Y150.094 E0.03958
G1 X32.311 Y149.569 E0.03308
G1 X31.387 Y148.825 E0.03719
G1 X30.757 Y148.154 E0.02885
G1 X30.227 Y147.411 E0.02862
G1 X29.710 Y146.434 E0.03467
G1 X29.329 Y145.322 E0.03685
G1 X27.684 Y138.555 E0.21836
G1 X27.683 Y71.541 E2.10118
G1 F8640
G1 X28.450 Y68.340 E-0.76000
G1 E-0.04000 F2100.00000
G1 Z0.800 F10800.000
G1 X50.000 Y146.623
G1 Z0.200
G1 E0.80000 F2100.00000
G1 F1200
G1 X49.315 Y146.545 E0.02161
G1 X48.664 Y146.318 E0.02161
G1 X48.081 Y145.951 E0.02161
G1 X47.593 Y145.464 E0.02161
G1 X47.227 Y144.880 E0.02161
G1 X46.999 Y144.229 E0.02161
G1 X46.922 Y143.545 E0.02161
G1 X46.999 Y142.860 E0.02161
G1 X47.227 Y142.209 E0.02161
G1 X47.593 Y141.625 E0.02161
G1 X48.081 Y141.138 E0.02161
G1 X48.664 Y140.771 E0.02161
G1 X49.315 Y140.544 E0.02161
G1 X49.961 Y140.471 E0.02039
G1 X50.681 Y140.542 E0.02269
G1 X51.336 Y140.771 E0.02173
G1 X51.919 Y141.138 E0.02161
G1 X52.407 Y141.625 E0.02161
G1 X52.773 Y142.209 E0.02161
G1 X53.001 Y142.860 E0.02161
G1 X53.078 Y143.545 E0.02161
G1 X53.001 Y144.229 E0.02161
G1 X52.773 Y144.880 E0.02161
G1 X52.407 Y145.464 E0.02161
G1 X51.919 Y145.951 E0.02161
G1 X51.336 Y146.318 E0.02161
G1 X50.685 Y146.545 E0.02161
G1 X50.060 Y146.616 E0.01973
G1 X50.000 Y146.243 F10800.000
G1 F1200
G1 X49.400 Y146.175 E0.01895
G1 X48.829 Y145.976 E0.01895
G1 X48.317 Y145.654 E0.01895
G1 X47.890 Y145.227 E0.01895
G1 X47.569 Y144.715 E0.01895
G1 X47.369 Y144.145 E0.01895
G1 X47.301 Y143.545 E0.01895
G1 X47.369 Y142.944 E0.01895
G1 X47.569 Y142.374 E0.01895
G1 X47.890 Y141.862 E0.01895
G1 X48.317 Y141.435 E0.01895
G1 X48.829 Y141.113 E0.01895
G1 X49.400 Y140.914 E0.01895
G1 X49.964 Y140.850 E0.01780
G1 X50.599 Y140.913 E0.02002
G1 X51.171 Y141.113 E0.01899
G1 X51.683 Y141.435 E0.01895
G1 X52.110 Y141.862 E0.01895
G1 X52.431 Y142.374 E0.01895
G1 X52.631 Y142.944 E0.01895
G1 X52.699 Y143.545 E0.01895
G1 X52.631 Y144.145 E0.01895
G1 X52.431 Y144.715 E0.01895
G1 X52.110 Y145.227 E0.01895
G1 X51.683 Y145.654 E0.01895
G1 X51.171 Y145.976 E0.01895
G1 X50.600 Y146.175 E0.01895
G1 X50.060 Y146.236 E0.01707
G1 X49.800 Y146.590 F10800.000
G1 F8640
G1 X49.400 Y146.175 E-0.15307
G1 X48.829 Y145.976 E-0.13953
G1 X48.317 Y145.654 E-0.13953
G1 X47.890 Y145.227 E-0.13953
G1 X47.569 Y144.715 E-0.13953
G1 X47.499 Y144.516 E-0.04880
G1 E-0.04000 F2100.00000
G1 Z0.800 F10800.000
G1 X50.000 Y69.534
G1 Z0.200
G1 E0.80000 F2100.00000
G1 F1200
G1 X49.315 Y69.456 E0.02161
G1 X48.664 Y69.229 E0.02161
G1 X48.081 Y68.862 E0.02161
G1 X47.593 Y68.375 E0.02161
G1 X47.227 Y67.791 E0.02161
G1 X46.999 Y67.140 E0.02161
G1 X46.922 Y66.455 E0.02161
G1 X46.999 Y65.771 E0.02161
G1 X47.227 Y65.120 E0.02161
G1 X47.593 Y64.536 E0.02161
G1 X48.081 Y64.049 E0.02161
G1 X48.664 Y63.682 E0.02161
G1 X49.315 Y63.455 E0.02161
G1 X49.961 Y63.382 E0.02039
G1 X50.681 Y63.453 E0.02269
G1 X51.336 Y63.682 E0.02173
G1 X51.919 Y64.049 E0.02161
G1 X52.407 Y64.536 E0.02161
G1 X52.773 Y65.120 E0.02161
G1 X53.001 Y65.771 E0.02161
G1 X53.078 Y66.456 E0.02161
G1 X53.001 Y67.140 E0.02161
G1 X52.773 Y67.791 E0.02161
G1 X52.407 Y68.375 E0.02161
G1 X51.919 Y68.862 E0.02161
G1 X51.336 Y69.229 E0.02161
G1 X50.685 Y69.456 E0.02161
G1 X50.060 Y69.527 E0.01973
G1 X50.000 Y69.154 F10800.000
G1 F1200
G1 X49.400 Y69.086 E0.01895
G1 X48.829 Y68.887 E0.01895
G1 X48.317 Y68.565 E0.01895
G1 X47.890 Y68.138 E0.01895
G1 X47.569 Y67.626 E0.01895
G1 X47.369 Y67.056 E0.01895
G1 X47.301 Y66.455 E0.01895
G1 X47.369 Y65.855 E0.01895
G1 X47.569 Y65.285 E0.01895
G1 X47.890 Y64.773 E0.01895
G1 X48.317 Y64.346 E0.01895
G1 X48.829 Y64.024 E0.01895
G1 X49.400 Y63.825 E0.01895
G1 X49.964 Y63.761 E0.01780
G1 X50.599 Y63.824 E0.02002
G1 X51.171 Y64.024 E0.01899
G1 X51.683 Y64.346 E0.01895
G1 X52.110 Y64.773 E0.01895
G1 X52.431 Y65.285 E0.01895
G1 X52.631 Y65.855 E0.01895
G1 X52.699 Y66.456 E0.01895
G1 X52.631 Y67.056 E0.01895
G1 X52.431 Y67.626 E0.01895
G1 X52.110 Y68.138 E0.01895
G1 X51.683 Y68.565 E0.01895
G1 X51.171 Y68.887 E0.01895
G1 X50.601 Y69.086 E0.01895
G1 X50.060 Y69.147 E0.01707
G1 X49.800 Y69.501 F10800.000
G1 F8640
G1 X49.400 Y69.086 E-0.15307
G1 X48.829 Y68.887 E-0.13953
G1 X48.317 Y68.565 E-0.13953
G1 X47.890 Y68.138 E-0.13953
G1 X47.569 Y67.626 E-0.13953
G1 X47.499 Y67.427 E-0.04880
G1 E-0.04000 F2100.00000
G1 Z0.800 F10800.000
G1 X50.000 Y147.837
G1 Z0.200
G1 E0.80000 F2100.00000
G1 F1200
G1 X36.406 Y147.837 E0.42624
G1 X35.747 Y147.789 E0.02071
G1 X35.131 Y147.650 E0.01980
G1 X34.542 Y147.423 E0.01980
G1 X33.992 Y147.112 E0.01980
G1 X33.495 Y146.723 E0.01980
G1 X33.059 Y146.266 E0.01980
G1 X32.696 Y145.749 E0.01980
G1 X32.412 Y145.185 E0.01980
G1 X32.205 Y144.558 E0.02071
G1 X30.658 Y138.368 E0.20005
G1 X30.658 Y71.632 E2.09244
G1 X32.205 Y65.442 E0.20005
G1 X32.412 Y64.815 E0.02071
G1 X32.696 Y64.251 E0.01980
G1 X33.053 Y63.744 E0.01945
G1 X33.495 Y63.277 E0.02017
G1 X33.992 Y62.888 E0.01978
G1 X34.542 Y62.577 E0.01980
G1 X35.131 Y62.350 E0.01980
G1 X35.747 Y62.211 E0.01980
G1 X36.406 Y62.163 E0.02071
G1 X63.594 Y62.163 E0.85247
G1 X64.242 Y62.210 E0.02036
G1 X64.870 Y62.350 E0.02017
G1 X65.458 Y62.577 E0.01978
G1 X66.008 Y62.888 E0.01980
G1 X66.505 Y63.277 E0.01980
G1 X66.941 Y63.734 E0.01980
G1 X67.304 Y64.251 E0.01980
G1 X67.588 Y64.815 E0.01980
G1 X67.795 Y65.442 E0.02071
G1 X69.342 Y71.632 E0.20005
G1 X69.342 Y138.368 E2.09244
G1 X67.795 Y144.558 E0.20005
G1 X67.588 Y145.185 E0.02071
G1 X67.304 Y145.749 E0.01980
G1 X66.941 Y146.265 E0.01978
G1 X66.497 Y146.730 E0.02017
G1 X66.008 Y147.112 E0.01945
G1 X65.458 Y147.423 E0.01980
G1 X64.869 Y147.650 E0.01980
G1 X64.253 Y147.789 E0.01980
G1 X63.594 Y147.837 E0.02071
G1 X50.060 Y147.837 E0.42435
G1 X50.000 Y148.215 F10800.000
G1 F1200
G1 X36.392 Y148.215 E0.42667
G1 X35.692 Y148.163 E0.02202
G1 X35.021 Y148.012 E0.02155
G1 X34.380 Y147.765 E0.02155
G1 X33.782 Y147.426 E0.02155
G1 X33.241 Y147.003 E0.02155
G1 X32.767 Y146.505 E0.02155
G1 X32.371 Y145.943 E0.02155
G1 X32.063 Y145.329 E0.02155
G1 X31.843 Y144.662 E0.02202
G1 X30.280 Y138.414 E0.20195
G1 X30.280 Y71.586 E2.09535
G1 X31.843 Y65.338 E0.20195
G1 X32.063 Y64.671 E0.02202
G1 X32.371 Y64.057 E0.02155
G1 X32.760 Y63.504 E0.02118
G1 X33.241 Y62.997 E0.02192
G1 X33.782 Y62.574 E0.02154
G1 X34.380 Y62.235 E0.02155
G1 X35.021 Y61.988 E0.02155
G1 X35.692 Y61.837 E0.02155
G1 X36.392 Y61.785 E0.02202
G1 X63.608 Y61.785 E0.85334
G1 X64.297 Y61.836 E0.02165
G1 X64.979 Y61.988 E0.02192
G1 X65.620 Y62.235 E0.02154
G1 X66.218 Y62.574 E0.02155
G1 X66.759 Y62.997 E0.02155
G1 X67.233 Y63.495 E0.02155
G1 X67.629 Y64.057 E0.02155
G1 X67.937 Y64.671 E0.02155
G1 X68.157 Y65.338 E0.02202
G1 X69.720 Y71.586 E0.20195
G1 X69.720 Y138.414 E2.09535
M73 Q0 S169
G1 X68.157 Y144.662 E0.20195
G1 X67.937 Y145.329 E0.02202
G1 X67.629 Y145.943 E0.02155
G1 X67.233 Y146.505 E0.02154
G1 X66.750 Y147.010 E0.02192
G1 X66.218 Y147.426 E0.02118
G1 X65.620 Y147.765 E0.02155
G1 X64.979 Y148.012 E0.02155
G1 X64.308 Y148.163 E0.02155
G1 X63.608 Y148.215 E0.02202
G1 X50.060 Y148.215 E0.42479
M73 P0 R168
G1 X49.800 Y147.868 F10800.000
G1 X49.354 Y147.724
G1 F1200
G1 X30.940 Y129.311 E0.81981
G1 X30.940 Y129.846 E0.01686
G1 X48.649 Y147.555 E0.78841
G1 X48.113 Y147.555 E0.01686
G1 X30.940 Y130.382 E0.76457
G1 X30.940 Y130.917 E0.01686
G1 X47.578 Y147.555 E0.74074
G1 X47.043 Y147.555 E0.01686
G1 X30.940 Y131.452 E0.71690
G1 X30.940 Y131.988 E0.01686
G1 X46.507 Y147.555 E0.69306
G1 X45.972 Y147.555 E0.01686
G1 X30.940 Y132.523 E0.66922
G1 X30.940 Y133.059 E0.01686
G1 X45.436 Y147.555 E0.64538
G1 X44.901 Y147.555 E0.01686
G1 X30.940 Y133.594 E0.62154
G1 X30.940 Y134.130 E0.01686
G1 X44.365 Y147.555 E0.59770
G1 X43.830 Y147.555 E0.01686
G1 X30.940 Y134.665 E0.57387
G1 X30.940 Y135.201 E0.01686
G1 X43.294 Y147.555 E0.55003
G1 X42.759 Y147.555 E0.01686
G1 X30.940 Y135.736 E0.52619
G1 X30.940 Y136.271 E0.01686
G1 X42.224 Y147.555 E0.50235
G1 X41.688 Y147.555 E0.01686
G1 X30.940 Y136.807 E0.47851
G1 X30.940 Y137.342 E0.01686
G1 X41.153 Y147.555 E0.45467
G1 X40.617 Y147.555 E0.01686
G1 X30.940 Y137.878 E0.43083
G1 X30.940 Y138.333 E0.01433
G1 X30.967 Y138.440 E0.00348
G1 X40.082 Y147.555 E0.40580
G1 X39.546 Y147.555 E0.01686
G1 X31.146 Y139.154 E0.37402
G1 X31.324 Y139.868 E0.02317
G1 X39.011 Y147.555 E0.34223
G1 X38.476 Y147.555 E0.01686
G1 X31.503 Y140.582 E0.31045
G1 X31.681 Y141.296 E0.02317
G1 X37.940 Y147.555 E0.27866
G1 X37.405 Y147.555 E0.01686
G1 X31.860 Y142.009 E0.24688
G1 X32.038 Y142.723 E0.02317
G1 X36.869 Y147.555 E0.21510
G1 X36.327 Y147.548 E0.01706
G1 X32.216 Y143.437 E0.18302
G1 X32.395 Y144.151 E0.02317
G1 X35.741 Y147.498 E0.14899
G1 X35.213 Y147.379 E0.01704
G1 X35.008 Y147.300 E0.00692
G1 X32.353 Y144.645 E0.11822
G1 X32.722 Y145.549 F10800.000
G1 F1200
G1 X34.367 Y147.194 E0.07325
G1 F8640
G1 X32.722 Y145.549 E-0.53724
G1 E-0.26276 F2100.00000
G1 Z0.800 F10800.000
G1 X46.864 Y144.699
G1 Z0.200
G1 E0.80000 F2100.00000
G1 F1200
G1 X30.940 Y128.775 E0.70893
G1 X30.940 Y128.240 E0.01686
G1 X46.687 Y143.987 E0.70108
G1 X46.637 Y143.545 E0.01401
G1 X46.652 Y143.416 E0.00407
G1 X30.940 Y127.704 E0.69950
G1 X30.940 Y127.169 E0.01686
G1 X46.706 Y142.935 E0.70192
G1 X46.722 Y142.796 E0.00439
G1 X46.821 Y142.514 E0.00942
G1 X30.940 Y126.634 E0.70701
G1 X30.940 Y126.098 E0.01686
G1 X46.959 Y142.117 E0.71319
G1 X47.161 Y141.783 E0.01228
G1 X30.940 Y125.563 E0.72215
G1 X30.940 Y125.027 E0.01686
G1 X47.367 Y141.454 E0.73135
G1 X47.634 Y141.185 E0.01192
G1 X30.940 Y124.492 E0.74322
G1 X30.940 Y123.956 E0.01686
G1 X47.901 Y140.917 E0.75514
G1 X48.230 Y140.710 E0.01222
G1 X30.940 Y123.421 E0.76976
G1 X30.940 Y122.885 E0.01686
G1 X48.562 Y140.507 E0.78456
G1 X48.959 Y140.369 E0.01323
G1 X30.940 Y122.350 E0.80222
G1 X30.940 Y121.815 E0.01686
G1 X49.378 Y140.252 E0.82086
G1 X49.859 Y140.198 E0.01525
G1 X30.940 Y121.279 E0.84229
G1 X30.940 Y120.744 E0.01686
G1 X50.430 Y140.233 E0.86770
G1 X50.743 Y140.264 E0.00990
G1 X51.133 Y140.401 E0.01301
G1 X30.940 Y120.208 E0.89900
G1 X30.940 Y119.673 E0.01686
G1 X58.822 Y147.555 E1.24135
G1 X59.358 Y147.555 E0.01686
G1 X30.940 Y119.137 E1.26519
G1 X30.940 Y118.602 E0.01686
G1 X59.893 Y147.555 E1.28902
G1 X60.428 Y147.555 E0.01686
G1 X30.940 Y118.067 E1.31286
G1 X30.940 Y117.531 E0.01686
G1 X60.964 Y147.555 E1.33670
G1 X61.499 Y147.555 E0.01686
G1 X30.940 Y116.996 E1.36054
G1 X30.940 Y116.460 E0.01686
G1 X62.035 Y147.555 E1.38438
M73 Q1 S168
G1 X62.570 Y147.555 E0.01686
G1 X30.940 Y115.925 E1.40822
M73 P1 R167
G1 X30.940 Y115.389 E0.01686
G1 X63.106 Y147.555 E1.43206
G1 X63.637 Y147.551 E0.01673
G1 X30.940 Y114.854 E1.45572
G1 X30.940 Y114.318 E0.01686
G1 X64.136 Y147.514 E1.47792
G1 X64.582 Y147.425 E0.01433
G1 X30.940 Y113.783 E1.49780
G1 X30.940 Y113.248 E0.01686
G1 X64.992 Y147.300 E1.51606
G1 X65.374 Y147.146 E0.01295
G1 X30.940 Y112.712 E1.53305
G1 X30.940 Y112.177 E0.01686
G1 X65.716 Y146.952 E1.54826
G1 X65.850 Y146.876 E0.00486
G1 X66.033 Y146.733 E0.00729
G1 X30.940 Y111.641 E1.56237
G1 X30.940 Y111.106 E0.01686
G1 X66.330 Y146.495 E1.57560
G1 X66.591 Y146.222 E0.01192
G1 X30.940 Y110.570 E1.58725
G1 X30.940 Y110.035 E0.01686
G1 X66.833 Y145.928 E1.59800
G1 X67.054 Y145.613 E0.01210
G1 X30.940 Y109.500 E1.60785
G1 X30.940 Y108.964 E0.01686
G1 X67.235 Y145.258 E1.61588
G1 X67.326 Y145.076 E0.00641
G1 X67.391 Y144.879 E0.00654
G1 X30.940 Y108.429 E1.62285
G1 X30.940 Y107.893 E0.01686
G1 X67.524 Y144.477 E1.62875
G1 X67.631 Y144.048 E0.01390
G1 X30.940 Y107.358 E1.63352
G1 X30.940 Y106.822 E0.01686
G1 X67.738 Y143.620 E1.63829
G1 X67.845 Y143.192 E0.01390
G1 X30.940 Y106.287 E1.64306
G1 X30.940 Y105.751 E0.01686
G1 X67.952 Y142.763 E1.64782
G1 X68.059 Y142.335 E0.01390
G1 X30.940 Y105.216 E1.65259
G1 X30.940 Y104.681 E0.01686
G1 X68.166 Y141.906 E1.65736
G1 X68.273 Y141.478 E0.01390
G1 X30.940 Y104.145 E1.66213
G1 X30.940 Y103.610 E0.01686
G1 X68.380 Y141.050 E1.66690
M73 Q1 S167
G1 X68.487 Y140.621 E0.01390
G1 X30.940 Y103.074 E1.67166
M73 P1 R166
G1 X30.940 Y102.539 E0.01686
G1 X68.595 Y140.193 E1.67643
G1 X68.702 Y139.765 E0.01390
G1 X30.940 Y102.003 E1.68120
G1 X30.940 Y101.468 E0.01686
G1 X68.809 Y139.336 E1.68597
G1 X68.916 Y138.908 E0.01390
G1 X30.940 Y100.933 E1.69073
G1 X30.940 Y100.397 E0.01686
G1 X69.023 Y138.480 E1.69550
G1 X69.060 Y138.333 E0.00477
G1 X69.060 Y137.981 E0.01108
G1 X30.940 Y99.862 E1.69714
G1 X30.940 Y99.326 E0.01686
G1 X69.060 Y137.446 E1.69714
G1 X69.060 Y136.910 E0.01686
G1 X30.940 Y98.791 E1.69714
G1 X30.940 Y98.255 E0.01686
G1 X69.060 Y136.375 E1.69714
G1 X69.060 Y135.839 E0.01686
G1 X30.940 Y97.720 E1.69714
G1 X30.940 Y97.184 E0.01686
G1 X69.060 Y135.304 E1.69714
G1 X69.060 Y134.768 E0.01686
G1 X30.940 Y96.649 E1.69714
G1 X30.940 Y96.114 E0.01686
G1 X69.060 Y134.233 E1.69714
G1 X69.060 Y133.697 E0.01686
G1 X30.940 Y95.578 E1.69714
G1 X30.940 Y95.043 E0.01686
G1 X69.060 Y133.162 E1.69714
G1 X69.060 Y132.627 E0.01686
G1 X30.940 Y94.507 E1.69714
G1 X30.940 Y93.972 E0.01686
G1 X69.060 Y132.091 E1.69714
G1 X69.060 Y131.556 E0.01686
G1 X30.940 Y93.436 E1.69714
G1 X30.940 Y92.901 E0.01686
G1 X69.060 Y131.020 E1.69714
G1 X69.060 Y130.485 E0.01686
G1 X30.940 Y92.366 E1.69714
G1 X30.940 Y91.830 E0.01686
G1 X69.060 Y129.949 E1.69714
G1 X69.060 Y129.414 E0.01686
M73 Q2 S166
G1 X30.940 Y91.295 E1.69714
M73 P2 R165
G1 X30.940 Y90.759 E0.01686
G1 X69.060 Y128.879 E1.69714
G1 X69.060 Y128.343 E0.01686
G1 X30.940 Y90.224 E1.69714
G1 X30.940 Y89.688 E0.01686
G1 X69.060 Y127.808 E1.69714
G1 X69.060 Y127.272 E0.01686
G1 X30.940 Y89.153 E1.69714
G1 X30.940 Y88.618 E0.01686
G1 X69.060 Y126.737 E1.69714
G1 X69.060 Y126.201 E0.01686
G1 X30.940 Y88.082 E1.69714
G1 X30.940 Y87.547 E0.01686
G1 X69.060 Y125.666 E1.69714
G1 X69.060 Y125.130 E0.01686
G1 X30.940 Y87.011 E1.69714
G1 X30.940 Y86.476 E0.01686
