; generated by PrusaSlicer 2.1.0+linux64 on 2019-09-29 at 20:28:47 UTC

; 

; external perimeters extrusion width = 0.45mm
; perimeters extrusion width = 0.45mm
; infill extrusion width = 0.45mm
; solid infill extrusion width = 0.45mm
; top infill extrusion width = 0.40mm
; first layer extrusion width = 0.42mm

M73 P0 R94
M73 Q0 S95
M201 X1000 Y1000 Z1000 E5000 ; sets maximum accelerations, mm/sec^2
M203 X200 Y200 Z12 E120 ; sets maximum feedrates, mm/sec
M204 P1250 R1250 T1250 ; sets acceleration (P, T) and retract acceleration (R), mm/sec^2
M205 X8.00 Y8.00 Z0.40 E1.50 ; sets the jerk limits, mm/sec
M205 S0 T0 ; sets the minimum extruding and travel feed rate, mm/sec
M107
M862.3 P "MK3S" ; printer model check
M862.1 P0.4 ; nozzle diameter check
M115 U3.8.0 ; tell printer latest fw version
G90 ; use absolute coordinates
M83 ; extruder relative mode
M104 S215 ; set extruder temp
M140 S60 ; set bed temp
M190 S60 ; wait for bed temp
M109 S215 ; wait for extruder temp
G28 W ; home all without mesh bed level
G80 ; mesh bed leveling
G1 Y-3.0 F1000.0 ; go outside print area
G92 E0.0
G1 X60.0 E9.0 F1000.0 ; intro line
M73 Q0 S95
M73 P0 R94
G1 X100.0 E12.5 F1000.0 ; intro line
G92 E0.0
M221 S95
G21 ; set units to millimeters
G90 ; use absolute coordinates
M83 ; use relative distances for extrusion
M900 K30 ; Filament gcode
;BEFORE_LAYER_CHANGE
G92 E0.0
;0.2


G1 E-0.80000 F2100.00000
G1 Z0.600 F10800.000
;AFTER_LAYER_CHANGE
;0.2
G1 X92.724 Y84.009
G1 Z0.200
G1 E0.80000 F2100.00000
M204 S1000
G1 F1200
G1 X93.642 Y83.862 E0.02915
G1 X156.344 Y83.862 E1.96601
G1 X156.950 Y83.925 E0.01910
G1 X157.448 Y84.070 E0.01626
G1 X158.067 Y84.387 E0.02179
G1 X158.495 Y84.724 E0.01709
G1 X159.162 Y85.651 E0.03580
G1 X159.396 Y86.294 E0.02147
G1 X159.471 Y86.902 E0.01922
G1 X159.472 Y123.086 E1.13452
G1 X159.382 Y123.756 E0.02119
G1 X159.077 Y124.520 E0.02578
G1 X158.575 Y125.194 E0.02634
G1 X158.063 Y125.615 E0.02079
G1 X157.276 Y125.991 E0.02734
G1 X156.358 Y126.138 E0.02915
G1 X93.626 Y126.138 E1.96692
G1 X92.742 Y125.996 E0.02809
G1 X92.002 Y125.654 E0.02553
G1 X91.471 Y125.243 E0.02107
G1 X90.979 Y124.614 E0.02504
G1 X90.625 Y123.784 E0.02829
G1 X90.527 Y123.032 E0.02377
G1 X90.528 Y86.943 E1.13154
G1 X90.614 Y86.258 E0.02165
G1 X90.918 Y85.490 E0.02591
G1 X91.422 Y84.809 E0.02655
G1 X91.937 Y84.385 E0.02090
G1 X92.669 Y84.035 E0.02546
G1 F8640
G1 X93.642 Y83.862 E-0.22801
G1 X95.946 Y83.862 E-0.53199
G1 E-0.04000 F2100.00000
G1 Z0.800 F10800.000
G1 X118.126 Y116.723
G1 Z0.200
G1 E0.80000 F2100.00000
G1 F1200
G1 X118.523 Y116.474 E0.01469
G1 X118.996 Y116.320 E0.01560
G1 X119.412 Y116.273 E0.01313
G1 X119.871 Y116.325 E0.01448
G1 X120.307 Y116.477 E0.01448
G1 X120.698 Y116.723 E0.01448
G1 X121.024 Y117.049 E0.01448
G1 X121.270 Y117.440 E0.01448
G1 X121.422 Y117.876 E0.01448
G1 X121.474 Y118.335 E0.01448
G1 X121.422 Y118.794 E0.01448
G1 X121.270 Y119.230 E0.01448
G1 X121.024 Y119.621 E0.01448
G1 X120.698 Y119.947 E0.01448
G1 X120.307 Y120.193 E0.01448
G1 X119.871 Y120.345 E0.01448
G1 X119.412 Y120.397 E0.01448
G1 X118.953 Y120.345 E0.01448
G1 X118.517 Y120.193 E0.01448
G1 X118.126 Y119.947 E0.01448
G1 X117.800 Y119.621 E0.01448
G1 X117.554 Y119.230 E0.01448
G1 X117.402 Y118.794 E0.01448
G1 X117.350 Y118.335 E0.01448
G1 X117.402 Y117.876 E0.01448
G1 X117.554 Y117.440 E0.01448
G1 X117.800 Y117.049 E0.01448
G1 X118.084 Y116.765 E0.01260
G1 X118.351 Y117.032 F10800.000
G1 F1200
G1 X118.684 Y116.818 E0.01242
G1 X119.076 Y116.690 E0.01293
G1 X119.412 Y116.652 E0.01059
G1 X119.786 Y116.695 E0.01181
G1 X120.142 Y116.819 E0.01181
G1 X120.461 Y117.019 E0.01181
G1 X120.728 Y117.286 E0.01181
G1 X120.928 Y117.605 E0.01181
G1 X121.052 Y117.961 E0.01181
G1 X121.095 Y118.335 E0.01181
G1 X121.052 Y118.709 E0.01181
G1 X120.928 Y119.065 E0.01181
G1 X120.728 Y119.384 E0.01181
G1 X120.461 Y119.651 E0.01181
G1 X120.142 Y119.851 E0.01181
G1 X119.786 Y119.975 E0.01181
G1 X119.412 Y120.018 E0.01181
G1 X119.038 Y119.975 E0.01181
G1 X118.682 Y119.851 E0.01181
G1 X118.363 Y119.651 E0.01181
G1 X118.096 Y119.384 E0.01181
G1 X117.896 Y119.065 E0.01181
G1 X117.772 Y118.709 E0.01181
G1 X117.729 Y118.335 E0.01181
G1 X117.772 Y117.961 E0.01181
G1 X117.896 Y117.605 E0.01181
G1 X118.096 Y117.286 E0.01181
G1 X118.308 Y117.074 E0.00938
G1 X118.289 Y116.641 F10800.000
G1 F8640
G1 X118.684 Y116.818 E-0.10507
G1 X119.076 Y116.690 E-0.09525
G1 X119.412 Y116.652 E-0.07802
G1 X119.786 Y116.695 E-0.08700
G1 X120.142 Y116.819 E-0.08700
G1 X120.461 Y117.019 E-0.08700
G1 X120.728 Y117.286 E-0.08700
G1 X120.928 Y117.605 E-0.08700
G1 X120.995 Y117.796 E-0.04666
G1 E-0.04000 F2100.00000
G1 Z0.800 F10800.000
G1 X93.972 Y122.700
G1 Z0.200
G1 E0.80000 F2100.00000
G1 F1200
G1 X93.956 Y117.427 E0.16535
G1 X93.965 Y87.299 E0.94463
G1 X156.035 Y87.300 E1.94618
G1 X156.035 Y122.701 E1.10997
G1 X94.032 Y122.700 E1.94407
G1 X93.710 Y123.077 F10800.000
G1 F1200
G1 X93.637 Y123.049 E0.00244
G1 X93.596 Y122.991 E0.00225
G1 X93.579 Y117.427 E0.17444
G1 X93.588 Y87.020 E0.95339
G1 X93.637 Y86.951 E0.00269
G1 X93.710 Y86.923 E0.00244
G1 X99.485 Y86.914 E0.18107
G1 X156.290 Y86.923 E1.78109
G1 X156.363 Y86.951 E0.00244
G1 X156.412 Y87.020 E0.00269
G1 X156.412 Y122.980 E1.12747
G1 X156.363 Y123.049 E0.00269
G1 X156.290 Y123.077 E0.00244
G1 X150.515 Y123.086 E0.18107
G1 X93.770 Y123.077 E1.77921
G1 X93.688 Y123.003 F10800.000
G1 F8640
G1 X93.637 Y123.049 E-0.03128
G1 X93.596 Y122.991 E-0.01660
G1 X93.587 Y119.907 E-0.71212
G1 E-0.04000 F2100.00000
G1 Z0.800 F10800.000
G1 X94.847 Y122.587
G1 Z0.200
G1 E0.80000 F2100.00000
G1 F1200
G1 X94.253 Y121.992 E0.02638
G1 X94.251 Y121.457 E0.01678
G1 X95.211 Y122.418 E0.04259
G1 X95.745 Y122.418 E0.01673
G1 X94.249 Y120.922 E0.06632
G1 X94.248 Y120.387 E0.01678
G1 X96.278 Y122.418 E0.09005
G1 X96.811 Y122.418 E0.01673
G1 X94.246 Y119.852 E0.11378
G1 X94.245 Y119.317 E0.01678
G1 X97.345 Y122.418 E0.13751
G1 X97.878 Y122.418 E0.01673
G1 X94.243 Y118.782 E0.16125
G1 X94.242 Y118.247 E0.01678
G1 X98.412 Y122.418 E0.18498
G1 X98.945 Y122.418 E0.01673
G1 X94.240 Y117.712 E0.20871
G1 X94.239 Y117.178 E0.01676
G1 X99.479 Y122.418 E0.23241
G1 X100.012 Y122.418 E0.01673
G1 X94.239 Y116.645 E0.25606
G1 X94.239 Y116.111 E0.01673
G1 X100.546 Y122.418 E0.27972
G1 X101.079 Y122.418 E0.01673
G1 X94.240 Y115.578 E0.30337
G1 X94.240 Y115.045 E0.01673
G1 X101.612 Y122.418 E0.32703
G1 X102.146 Y122.418 E0.01673
G1 X94.240 Y114.512 E0.35068
G1 X94.240 Y113.978 E0.01673
G1 X102.679 Y122.418 E0.37434
G1 X103.213 Y122.418 E0.01673
G1 X94.240 Y113.445 E0.39799
G1 X94.240 Y112.912 E0.01673
G1 X103.746 Y122.418 E0.42165
G1 X104.280 Y122.418 E0.01673
G1 X94.240 Y112.378 E0.44530
G1 X94.241 Y111.845 E0.01673
G1 X104.813 Y122.418 E0.46896
G1 X105.347 Y122.418 E0.01673
G1 X94.241 Y111.312 E0.49261
G1 X94.241 Y110.778 E0.01673
G1 X105.880 Y122.418 E0.51627
G1 X106.414 Y122.418 E0.01673
G1 X94.241 Y110.245 E0.53992
G1 X94.241 Y109.712 E0.01673
G1 X106.947 Y122.418 E0.56358
G1 X107.480 Y122.418 E0.01673
G1 X94.241 Y109.179 E0.58723
G1 X94.242 Y108.645 E0.01673
G1 X108.014 Y122.418 E0.61089
G1 X108.547 Y122.418 E0.01673
G1 X94.242 Y108.112 E0.63454
G1 X94.242 Y107.579 E0.01673
G1 X109.081 Y122.418 E0.65820
G1 X109.614 Y122.418 E0.01673
G1 X94.242 Y107.045 E0.68185
G1 X94.242 Y106.512 E0.01673
G1 X110.148 Y122.418 E0.70551
G1 X110.681 Y122.418 E0.01673
G1 X94.242 Y105.979 E0.72916
G1 X94.242 Y105.445 E0.01673
G1 X111.215 Y122.418 E0.75282
G1 X111.748 Y122.418 E0.01673
G1 X94.243 Y104.912 E0.77648
G1 X94.243 Y104.379 E0.01673
G1 X112.281 Y122.418 E0.80013
M73 Q1 S94
M73 P1 R93
G1 X112.815 Y122.418 E0.01673
G1 X94.243 Y103.846 E0.82379
G1 X94.243 Y103.312 E0.01673
G1 X113.348 Y122.418 E0.84744
G1 X113.882 Y122.418 E0.01673
G1 X94.243 Y102.779 E0.87110
G1 X94.243 Y102.246 E0.01673
G1 X114.415 Y122.418 E0.89475
G1 X114.949 Y122.418 E0.01673
G1 X94.243 Y101.712 E0.91841
G1 X94.244 Y101.179 E0.01673
G1 X115.482 Y122.418 E0.94206
G1 X116.016 Y122.418 E0.01673
G1 X94.244 Y100.646 E0.96572
G1 X94.244 Y100.113 E0.01673
G1 X116.549 Y122.418 E0.98937
G1 X117.082 Y122.418 E0.01673
G1 X94.244 Y99.579 E1.01303
G1 X94.244 Y99.046 E0.01673
G1 X117.616 Y122.418 E1.03668
G1 X118.149 Y122.418 E0.01673
G1 X94.244 Y98.513 E1.06034
G1 X94.244 Y97.979 E0.01673
G1 X118.683 Y122.418 E1.08399
G1 X119.216 Y122.418 E0.01673
G1 X94.245 Y97.446 E1.10765
G1 X94.245 Y96.913 E0.01673
G1 X119.750 Y122.418 E1.13130
G1 X120.283 Y122.418 E0.01673
G1 X94.245 Y96.379 E1.15496
G1 X94.245 Y95.846 E0.01673
G1 X117.107 Y118.709 E1.01409
G1 X117.065 Y118.335 E0.01179
G1 X117.086 Y118.153 E0.00573
G1 X94.245 Y95.313 E1.01312
G1 X94.245 Y94.780 E0.01673
G1 X117.164 Y117.698 E1.01659
G1 X117.305 Y117.306 E0.01309
G1 X94.246 Y94.246 E1.02282
G1 X94.246 Y93.713 E0.01673
G1 X117.511 Y116.978 E1.03195
G1 X117.577 Y116.872 E0.00393
G1 X117.758 Y116.692 E0.00800
G1 X94.246 Y93.180 E1.04290
G1 X94.246 Y92.646 E0.01673
G1 X118.042 Y116.442 E1.05549
G1 X118.369 Y116.236 E0.01214
G1 X94.246 Y92.113 E1.07001
G1 X94.246 Y91.580 E0.01673
G1 X118.764 Y116.098 E1.08753
G1 X118.936 Y116.042 E0.00566
G1 X119.211 Y116.011 E0.00868
G1 X94.246 Y91.046 E1.10733
G1 X94.247 Y90.513 E0.01673
G1 X119.974 Y116.241 E1.14119
G1 F8640
G1 X117.647 Y113.914 E-0.76000
G1 E-0.04000 F2100.00000
G1 Z0.800 F10800.000
G1 X118.816 Y120.417
G1 Z0.200
G1 E0.80000 F2100.00000
G1 F1200
G1 X120.817 Y122.418 E0.08873
G1 X121.350 Y122.418 E0.01673
G1 X119.594 Y120.661 E0.07791
G1 X119.934 Y120.623 E0.01075
G1 X120.049 Y120.583 E0.00380
G1 X121.884 Y122.418 E0.08139
G1 X122.417 Y122.418 E0.01673
G1 X120.441 Y120.442 E0.08763
G1 X120.769 Y120.236 E0.01214
G1 X122.950 Y122.418 E0.09676
G1 X123.484 Y122.418 E0.01673
G1 X121.055 Y119.989 E0.10771
G1 X121.247 Y119.798 E0.00848
G1 X121.305 Y119.705 E0.00344
G1 X124.017 Y122.418 E0.12031
G1 X124.551 Y122.418 E0.01673
G1 X121.511 Y119.378 E0.13484
G1 X121.654 Y118.988 E0.01304
G1 X125.084 Y122.418 E0.15215
G1 X125.618 Y122.418 E0.01673
G1 X121.736 Y118.536 E0.17218
G1 X121.759 Y118.335 E0.00635
G1 X121.719 Y117.986 E0.01102
G1 X126.151 Y122.418 E0.19658
G1 X126.685 Y122.418 E0.01673
G1 X94.247 Y89.980 E1.43882
G1 X94.247 Y89.447 E0.01673
G1 X127.218 Y122.418 E1.46248
G1 X127.751 Y122.418 E0.01673
G1 X94.247 Y88.913 E1.48613
G1 X94.247 Y88.380 E0.01673
G1 X128.285 Y122.418 E1.50979
G1 X128.818 Y122.418 E0.01673
G1 X94.247 Y87.847 E1.53344
G1 X94.247 Y87.582 E0.00830
G1 X94.516 Y87.582 E0.00843
G1 X129.352 Y122.418 E1.54518
M73 Q2 S93
M73 P2 R92
G1 X129.885 Y122.418 E0.01673
G1 X95.050 Y87.582 E1.54518
G1 X95.583 Y87.582 E0.01673
G1 X130.419 Y122.418 E1.54518
G1 X130.952 Y122.418 E0.01673
G1 X96.117 Y87.582 E1.54518
G1 X96.650 Y87.582 E0.01673
G1 X131.486 Y122.418 E1.54518
G1 X132.019 Y122.418 E0.01673
G1 X97.183 Y87.582 E1.54518
G1 X97.717 Y87.582 E0.01673
G1 X132.553 Y122.418 E1.54518
G1 X133.086 Y122.418 E0.01673
G1 X98.250 Y87.582 E1.54518
G1 X98.784 Y87.582 E0.01673
G1 X133.619 Y122.418 E1.54518
G1 X134.153 Y122.418 E0.01673
G1 X99.317 Y87.582 E1.54518
G1 X99.851 Y87.582 E0.01673
G1 X134.686 Y122.418 E1.54518
G1 X135.220 Y122.418 E0.01673
G1 X100.384 Y87.582 E1.54518
G1 X100.918 Y87.582 E0.01673
G1 X135.753 Y122.418 E1.54518
G1 X136.287 Y122.418 E0.01673
G1 X101.451 Y87.582 E1.54518
G1 X101.984 Y87.582 E0.01673
G1 X136.820 Y122.418 E1.54518
G1 X137.354 Y122.418 E0.01673
G1 X102.518 Y87.582 E1.54518
G1 X103.051 Y87.582 E0.01673
G1 X137.887 Y122.418 E1.54518
G1 X138.420 Y122.418 E0.01673
G1 X103.585 Y87.582 E1.54518
G1 X104.118 Y87.582 E0.01673
G1 X138.954 Y122.418 E1.54518
G1 X139.487 Y122.418 E0.01673
G1 X104.652 Y87.582 E1.54518
G1 X105.185 Y87.582 E0.01673
G1 X140.021 Y122.418 E1.54518
G1 X140.554 Y122.418 E0.01673
G1 X105.719 Y87.582 E1.54518
G1 X106.252 Y87.582 E0.01673
G1 X141.088 Y122.418 E1.54518
G1 X141.621 Y122.418 E0.01673
G1 X106.785 Y87.582 E1.54518
G1 X107.319 Y87.582 E0.01673
G1 X142.155 Y122.418 E1.54518
M73 Q3 S92
M73 P3 R91
G1 X142.688 Y122.418 E0.01673
G1 X107.852 Y87.582 E1.54518
G1 X108.386 Y87.582 E0.01673
G1 X143.221 Y122.418 E1.54518
G1 X143.755 Y122.418 E0.01673
G1 X108.919 Y87.582 E1.54518
G1 X109.453 Y87.582 E0.01673
G1 X144.288 Y122.418 E1.54518
G1 X144.822 Y122.418 E0.01673
G1 X109.986 Y87.582 E1.54518
G1 X110.520 Y87.582 E0.01673
G1 X145.355 Y122.418 E1.54518
G1 X145.889 Y122.418 E0.01673
G1 X111.053 Y87.582 E1.54518
G1 X111.587 Y87.582 E0.01673
G1 X146.422 Y122.418 E1.54518
G1 X146.956 Y122.418 E0.01673
G1 X112.120 Y87.582 E1.54518
G1 X112.653 Y87.582 E0.01673
G1 X147.489 Y122.418 E1.54518
G1 X148.023 Y122.418 E0.01673
G1 X113.187 Y87.582 E1.54518
G1 X113.720 Y87.582 E0.01673
G1 X148.556 Y122.418 E1.54518
G1 X149.089 Y122.418 E0.01673
G1 X114.254 Y87.582 E1.54518
G1 X114.787 Y87.582 E0.01673
G1 X149.623 Y122.418 E1.54518
G1 X150.156 Y122.418 E0.01673
G1 X115.321 Y87.582 E1.54518
G1 X115.854 Y87.582 E0.01673
G1 X150.690 Y122.418 E1.54518
G1 X151.223 Y122.418 E0.01673
G1 X116.388 Y87.582 E1.54518
G1 X116.921 Y87.582 E0.01673
G1 X151.757 Y122.418 E1.54518
G1 X152.290 Y122.418 E0.01673
G1 X117.454 Y87.582 E1.54518
G1 X117.988 Y87.582 E0.01673
G1 X152.824 Y122.418 E1.54518
G1 X153.357 Y122.418 E0.01673
G1 X118.521 Y87.582 E1.54518
G1 X119.055 Y87.582 E0.01673
G1 X153.890 Y122.418 E1.54518
G1 X154.424 Y122.418 E0.01673
G1 X119.588 Y87.582 E1.54518
G1 X120.122 Y87.582 E0.01673
G1 X154.957 Y122.418 E1.54518
M73 Q4 S91
M73 P4 R90
G1 X155.491 Y122.418 E0.01673
G1 X120.655 Y87.582 E1.54518
G1 X121.189 Y87.582 E0.01673
G1 X155.752 Y122.146 E1.53312
G1 X155.752 Y121.613 E0.01673
G1 X121.722 Y87.582 E1.50946
G1 X122.255 Y87.582 E0.01673
G1 X155.752 Y121.079 E1.48580
G1 X155.752 Y120.546 E0.01673
G1 X122.789 Y87.582 E1.46214
G1 X123.322 Y87.582 E0.01673
G1 X155.752 Y120.012 E1.43848
G1 X155.752 Y119.479 E0.01673
G1 X123.856 Y87.582 E1.41481
G1 X124.389 Y87.582 E0.01673
G1 X155.752 Y118.945 E1.39115
G1 X155.752 Y118.412 E0.01673
G1 X124.923 Y87.582 E1.36749
G1 X125.456 Y87.582 E0.01673
G1 X155.752 Y117.879 E1.34383
G1 X155.752 Y117.345 E0.01673
G1 X125.990 Y87.582 E1.32017
G1 X126.523 Y87.582 E0.01673
G1 X155.752 Y116.812 E1.29650
G1 X155.752 Y116.278 E0.01673
G1 X127.057 Y87.582 E1.27284
G1 X127.590 Y87.582 E0.01673
G1 X155.752 Y115.745 E1.24918
G1 X155.752 Y115.211 E0.01673
G1 X128.123 Y87.582 E1.22552
G1 X128.657 Y87.582 E0.01673
G1 X155.752 Y114.678 E1.20186
G1 X155.752 Y114.144 E0.01673
G1 X129.190 Y87.582 E1.17820
G1 X129.724 Y87.582 E0.01673
G1 X155.752 Y113.611 E1.15453
G1 X155.752 Y113.078 E0.01673
G1 X130.257 Y87.582 E1.13087
G1 X130.791 Y87.582 E0.01673
G1 X155.752 Y112.544 E1.10721
G1 X155.752 Y112.011 E0.01673
G1 X131.324 Y87.582 E1.08355
G1 X131.858 Y87.582 E0.01673
G1 X155.752 Y111.477 E1.05989
G1 X155.752 Y110.944 E0.01673
G1 X132.391 Y87.582 E1.03623
G1 X132.924 Y87.582 E0.01673
G1 X155.752 Y110.410 E1.01256
G1 X155.752 Y109.877 E0.01673
G1 X133.458 Y87.582 E0.98890
G1 X133.991 Y87.582 E0.01673
G1 X155.752 Y109.343 E0.96524
G1 X155.752 Y108.810 E0.01673
G1 X134.525 Y87.582 E0.94158
G1 X135.058 Y87.582 E0.01673
G1 X155.752 Y108.277 E0.91792
G1 X155.752 Y107.743 E0.01673
G1 X135.592 Y87.582 E0.89425
G1 X136.125 Y87.582 E0.01673
G1 X155.752 Y107.210 E0.87059
G1 X155.752 Y106.676 E0.01673
G1 X136.659 Y87.582 E0.84693
M73 Q5 S90
M73 P5 R89
G1 X137.192 Y87.582 E0.01673
G1 X155.752 Y106.143 E0.82327
G1 X155.752 Y105.609 E0.01673
G1 X137.726 Y87.582 E0.79961
G1 X138.259 Y87.582 E0.01673
G1 X155.752 Y105.076 E0.77595
G1 X155.752 Y104.542 E0.01673
G1 X138.792 Y87.582 E0.75228
G1 X139.326 Y87.582 E0.01673
G1 X155.752 Y104.009 E0.72862
G1 X155.752 Y103.476 E0.01673
G1 X139.859 Y87.582 E0.70496
G1 X140.393 Y87.582 E0.01673
G1 X155.752 Y102.942 E0.68130
G1 X155.752 Y102.409 E0.01673
G1 X140.926 Y87.582 E0.65764
G1 X141.460 Y87.582 E0.01673
G1 X155.752 Y101.875 E0.63398
G1 X155.752 Y101.342 E0.01673
G1 X141.993 Y87.582 E0.61031
G1 X142.527 Y87.582 E0.01673
G1 X155.752 Y100.808 E0.58665
G1 X155.752 Y100.275 E0.01673
G1 X143.060 Y87.582 E0.56299
G1 X143.593 Y87.582 E0.01673
G1 X155.752 Y99.741 E0.53933
G1 X155.752 Y99.208 E0.01673
G1 X144.127 Y87.582 E0.51567
G1 X144.660 Y87.582 E0.01673
